; G-Code generated by Simplify3D(R) Version 3.0.1
; Dec 8, 2015 at 3:19:12 PM
; Settings Summary
;   processName,K-40-20-70
;   applyToModels,10mm_test_cylinder
;   profileName,K-40-20 (modified)
;   profileVersion,2015-11-09 09:42:20
;   baseProfile,Rostock MAX v2 (modified)
;   printMaterial,ABS
;   printQuality,High
;   printExtruders,
;   extruderName,Primary Extruder
;   extruderToolheadNumber,0
;   extruderDiameter,0.4
;   extruderAutoWidth,1
;   extruderWidth,0.48
;   extrusionMultiplier,1
;   extruderUseRetract,1
;   extruderRetractionDistance,1
;   extruderExtraRestartDistance,0
;   extruderRetractionZLift,0
;   extruderRetractionSpeed,1500
;   extruderUseCoasting,0
;   extruderCoastingDistance,1
;   extruderUseWipe,0
;   extruderWipeDistance,5
;   primaryExtruder,0
;   layerHeight,0.25
;   topSolidLayers,0
;   bottomSolidLayers,3
;   perimeterOutlines,2
;   printPerimetersInsideOut,1
;   startPointOption,3
;   startPointOriginX,0
;   startPointOriginY,0
;   startPointOriginZ,300
;   sequentialIslands,0
;   spiralVaseMode,0
;   firstLayerHeightPercentage,100
;   firstLayerWidthPercentage,150
;   firstLayerUnderspeed,0.4
;   useRaft,0
;   raftExtruder,0
;   raftLayers,3
;   raftOffset,3
;   raftSeparationDistance,0.14
;   raftInfill,85
;   disableRaftBaseLayers,0
;   useSkirt,1
;   skirtExtruder,0
;   skirtLayers,1
;   skirtOutlines,2
;   skirtOffset,3
;   usePrimePillar,0
;   primePillarExtruder,999
;   primePillarWidth,12
;   primePillarLocation,7
;   primePillarSpeedMultiplier,1
;   useOozeShield,0
;   oozeShieldExtruder,999
;   oozeShieldOffset,10
;   oozeShieldOutlines,1
;   oozeShieldSidewallShape,1
;   oozeShieldSidewallAngle,30
;   oozeShieldSpeedMultiplier,1
;   infillExtruder,0
;   internalInfillPattern,Rectilinear
;   externalInfillPattern,Rectilinear
;   infillPercentage,0
;   outlineOverlapPercentage,5
;   infillExtrusionWidthPercentage,100
;   minInfillLength,5
;   infillLayerInterval,1
;   infillAngles,45,-45
;   overlapInfillAngles,0
;   generateSupport,1
;   supportExtruder,0
;   supportInfillPercentage,40
;   supportExtraInflation,0
;   denseSupportLayers,0
;   denseSupportInfillPercentage,70
;   supportLayerInterval,1
;   supportHorizontalPartOffset,0.3
;   supportUpperSeparationLayers,1
;   supportLowerSeparationLayers,1
;   supportType,0
;   supportGridSpacing,2
;   maxOverhangAngle,45
;   supportAngles,0
;   temperatureName,Primary Extruder,Heated Bed
;   temperatureNumber,0,1
;   temperatureSetpointCount,1,1
;   temperatureSetpointLayers,1,1
;   temperatureSetpointTemperatures,230,100
;   temperatureStabilizeAtStartup,0,0
;   temperatureHeatedBed,0,1
;   temperatureRelayBetweenLayers,0,0
;   temperatureRelayBetweenLoops,0,0
;   fanLayers,1
;   fanSpeeds,100
;   blipFanToFullPower,1
;   adjustSpeedForCooling,1
;   minSpeedLayerTime,15
;   minCoolingSpeedSlowdown,20
;   increaseFanForCooling,0
;   minFanLayerTime,60
;   maxCoolingFanSpeed,100
;   increaseFanForBridging,0
;   bridgingFanSpeed,100
;   use5D,1
;   relativeEdistances,0
;   allowEaxisZeroing,1
;   independentExtruderAxes,0
;   includeM10123,0
;   stickySupport,1
;   applyToolheadOffsets,0
;   gcodeXoffset,0
;   gcodeYoffset,0
;   gcodeZoffset,0
;   overrideMachineDefinition,1
;   machineTypeOverride,1
;   strokeXoverride,240
;   strokeYoverride,240
;   strokeZoverride,230
;   originOffsetXoverride,120
;   originOffsetYoverride,120
;   originOffsetZoverride,0
;   homeXdirOverride,0
;   homeYdirOverride,0
;   homeZdirOverride,1
;   flipXoverride,1
;   flipYoverride,-1
;   flipZoverride,1
;   toolheadOffsets,0,0|0,0|0,0|0,0|0,0|0,0
;   overrideFirmwareConfiguration,1
;   firmwareTypeOverride,RepRap (Marlin/Repetier/Sprinter)
;   GPXconfigOverride,r2
;   baudRateOverride,250000
;   overridePrinterModels,1
;   printerModelsOverride
;   startingGcode,G28 ; home all axes
;   layerChangeGcode,
;   retractionGcode,
;   toolChangeGcode,
;   endingGcode,G91 ; relative positioning,G1 E-1 F300 ; retract the filament a bit before lifting the nozzle to release some of the pressure,G1 Z+1 E-10 F1500 ; move Z up a bit retract filament even more,G28 ; move X to min endstop so the head is out of the way,M107 ; fan off,M104 S0 ; extruder off,M140 S0 ; bed off,G4 S300,M84 ; disable motors
;   createX3G,0
;   celebration,0
;   celebrationSong,Random Song
;   createMB5G,0
;   postProcessing,
;   defaultSpeed,4200
;   outlineUnderspeed,0.7
;   solidInfillUnderspeed,0.8
;   supportUnderspeed,0.8
;   rapidXYspeed,9000
;   rapidZspeed,9000
;   minBridgingArea,50
;   bridgingExtraInflation,0.2
;   bridgingExtrusionMultiplier,0.9
;   bridgingSpeedMultiplier,0.3
;   filamentDiameter,1.75
;   filamentPricePerKg,46
;   filamentDensity,1.25
;   useMinPrintHeight,0
;   minPrintHeight,0
;   useMaxPrintHeight,0
;   maxPrintHeight,0
;   useDiaphragm,0
;   diaphragmLayerInterval,1
;   robustSlicing,0
;   mergeAllIntoSolid,0
;   onlyRetractWhenCrossingOutline,1
;   retractBetweenLayers,1
;   useRetractionMinTravel,1
;   retractionMinTravel,3
;   retractWhileWiping,1
;   onlyWipeOutlines,1
;   avoidCrossingOutline,0
;   maxMovementDetourFactor,3
;   toolChangeRetractionDistance,12
;   toolChangeExtraRestartDistance,-0.5
;   toolChangeRetractionSpeed,600
;   allowThinWallGapFill,1
;   thinWallAllowedOverlapPercentage,10
;   horizontalSizeCompensation,0
G90
M82
M106 S255
M140 S100
M104 S230 T0
G28 ; home all axes
G92 E0
G1 E-1.0000 F1500
G1 Z0.250 F9000
; layer 1, Z = 0.25
T0
; tool H0.250 W0.720
; skirt
G1 X-3.959 Y-7.769 F9000
G1 E0.0000 F450
G92 E0
G1 X-3.098 Y-8.150 E0.0705 F840
G1 X-3.077 Y-8.159 E0.0721
G1 X-2.884 Y-8.231 E0.0876
G1 X-2.863 Y-8.238 E0.0892
G1 X-2.216 Y-8.434 E0.1398
G1 X-2.199 Y-8.439 E0.1412
G1 X-2.039 Y-8.479 E0.1535
G1 X-2.021 Y-8.483 E0.1548
G1 X-1.378 Y-8.611 E0.2040
G1 X-1.360 Y-8.614 E0.2053
G1 X-1.197 Y-8.638 E0.2176
G1 X-1.180 Y-8.640 E0.2189
G1 X-0.528 Y-8.704 E0.2680
G1 X-0.510 Y-8.705 E0.2693
G1 X-0.345 Y-8.714 E0.2816
G1 X-0.328 Y-8.714 E0.2829
G1 X0.328 Y-8.714 E0.3320
G1 X0.345 Y-8.714 E0.3333
G1 X0.510 Y-8.705 E0.3457
G1 X0.528 Y-8.704 E0.3470
G1 X1.180 Y-8.640 E0.3961
G1 X1.198 Y-8.638 E0.3974
G1 X1.361 Y-8.614 E0.4097
G1 X1.378 Y-8.610 E0.4110
G1 X2.022 Y-8.483 E0.4601
G1 X2.039 Y-8.479 E0.4614
G1 X2.199 Y-8.439 E0.4738
G1 X2.216 Y-8.434 E0.4751
G1 X2.844 Y-8.243 E0.5242
G1 X2.861 Y-8.238 E0.5256
G1 X3.016 Y-8.182 E0.5379
G1 X3.033 Y-8.176 E0.5392
G1 X3.638 Y-7.925 E0.5882
G1 X3.654 Y-7.918 E0.5895
G1 X3.803 Y-7.848 E0.6019
G1 X3.819 Y-7.840 E0.6032
G1 X4.397 Y-7.531 E0.6523
G1 X4.412 Y-7.522 E0.6536
G1 X4.554 Y-7.437 E0.6659
G1 X4.569 Y-7.428 E0.6673
G1 X5.114 Y-7.063 E0.7163
G1 X5.128 Y-7.053 E0.7177
G1 X5.261 Y-6.955 E0.7300
G1 X5.275 Y-6.944 E0.7313
G1 X5.782 Y-6.528 E0.7804
G1 X5.795 Y-6.516 E0.7817
G1 X5.917 Y-6.406 E0.7941
G1 X5.930 Y-6.393 E0.7954
G1 X6.394 Y-5.929 E0.8445
G1 X6.406 Y-5.916 E0.8458
G1 X6.517 Y-5.794 E0.8582
G1 X6.529 Y-5.781 E0.8595
G1 X6.944 Y-5.275 E0.9085
G1 X6.955 Y-5.261 E0.9098
G1 X7.053 Y-5.128 E0.9222
G1 X7.063 Y-5.114 E0.9235
G1 X7.428 Y-4.569 E0.9726
G1 X7.437 Y-4.554 E0.9739
G1 X7.522 Y-4.412 E0.9862
G1 X7.531 Y-4.397 E0.9875
G1 X7.840 Y-3.819 E1.0366
G1 X7.848 Y-3.803 E1.0379
G1 X7.918 Y-3.654 E1.0503
G1 X7.925 Y-3.638 E1.0516
G1 X8.176 Y-3.032 E1.1007
G1 X8.183 Y-3.015 E1.1020
G1 X8.238 Y-2.860 E1.1143
G1 X8.244 Y-2.843 E1.1157
G1 X8.434 Y-2.215 E1.1648
G1 X8.439 Y-2.198 E1.1661
G1 X8.479 Y-2.038 E1.1784
G1 X8.483 Y-2.021 E1.1798
G1 X8.611 Y-1.378 E1.2288
G1 X8.614 Y-1.361 E1.2301
G1 X8.638 Y-1.198 E1.2425
G1 X8.640 Y-1.180 E1.2438
G1 X8.704 Y-0.527 E1.2929
G1 X8.705 Y-0.509 E1.2942
G1 X8.714 Y-0.345 E1.3066
G1 X8.714 Y-0.327 E1.3079
G1 X8.714 Y0.328 E1.3569
G1 X8.714 Y0.346 E1.3582
G1 X8.705 Y0.510 E1.3706
G1 X8.704 Y0.528 E1.3719
G1 X8.640 Y1.180 E1.4209
G1 X8.638 Y1.198 E1.4223
G1 X8.614 Y1.361 E1.4346
G1 X8.610 Y1.378 E1.4359
G1 X8.483 Y2.022 E1.4850
G1 X8.479 Y2.039 E1.4863
G1 X8.439 Y2.199 E1.4987
G1 X8.434 Y2.216 E1.5000
G1 X8.244 Y2.843 E1.5491
G1 X8.238 Y2.860 E1.5504
G1 X8.182 Y3.016 E1.5627
G1 X8.176 Y3.032 E1.5641
G1 X7.925 Y3.638 E1.6132
G1 X7.918 Y3.655 E1.6145
G1 X7.847 Y3.804 E1.6268
G1 X7.839 Y3.819 E1.6282
G1 X7.530 Y4.397 E1.6772
G1 X7.522 Y4.412 E1.6785
G1 X7.437 Y4.554 E1.6908
G1 X7.428 Y4.569 E1.6922
G1 X7.063 Y5.114 E1.7412
G1 X7.053 Y5.128 E1.7425
G1 X6.955 Y5.261 E1.7549
G1 X6.944 Y5.275 E1.7562
G1 X6.528 Y5.781 E1.8053
G1 X6.516 Y5.795 E1.8066
G1 X6.406 Y5.917 E1.8189
G1 X6.394 Y5.930 E1.8203
G1 X5.930 Y6.394 E1.8693
G1 X5.917 Y6.406 E1.8707
G1 X5.795 Y6.517 E1.8830
G1 X5.781 Y6.528 E1.8843
G1 X5.274 Y6.944 E1.9334
G1 X5.260 Y6.955 E1.9348
G1 X5.128 Y7.054 E1.9471
G1 X5.113 Y7.064 E1.9484
G1 X4.569 Y7.428 E1.9974
G1 X4.554 Y7.437 E1.9988
G1 X4.412 Y7.522 E2.0111
G1 X4.397 Y7.531 E2.0124
G1 X3.819 Y7.840 E2.0615
G1 X3.803 Y7.848 E2.0628
G1 X3.654 Y7.918 E2.0752
G1 X3.638 Y7.925 E2.0765
G1 X3.032 Y8.176 E2.1255
G1 X3.015 Y8.182 E2.1269
G1 X2.860 Y8.238 E2.1392
G1 X2.843 Y8.244 E2.1405
G1 X2.216 Y8.434 E2.1896
G1 X2.199 Y8.439 E2.1909
G1 X2.039 Y8.479 E2.2033
G1 X2.021 Y8.483 E2.2046
G1 X1.378 Y8.611 E2.2537
G1 X1.360 Y8.614 E2.2550
G1 X1.197 Y8.638 E2.2674
G1 X1.180 Y8.640 E2.2687
G1 X0.528 Y8.704 E2.3177
G1 X0.510 Y8.705 E2.3190
G1 X0.345 Y8.714 E2.3314
G1 X0.328 Y8.714 E2.3327
G1 X-0.328 Y8.714 E2.3818
G1 X-0.345 Y8.714 E2.3831
G1 X-0.510 Y8.705 E2.3954
G1 X-0.528 Y8.704 E2.3968
G1 X-1.180 Y8.640 E2.4458
G1 X-1.198 Y8.638 E2.4471
G1 X-1.361 Y8.614 E2.4595
G1 X-1.378 Y8.610 E2.4608
G1 X-2.022 Y8.483 E2.5099
G1 X-2.039 Y8.479 E2.5112
G1 X-2.199 Y8.439 E2.5236
G1 X-2.216 Y8.434 E2.5249
G1 X-2.844 Y8.243 E2.5740
G1 X-2.861 Y8.238 E2.5753
G1 X-3.016 Y8.182 E2.5877
G1 X-3.033 Y8.176 E2.5890
G1 X-3.638 Y7.925 E2.6380
G1 X-3.654 Y7.918 E2.6393
G1 X-3.803 Y7.848 E2.6517
G1 X-3.819 Y7.840 E2.6530
G1 X-4.397 Y7.531 E2.7020
G1 X-4.412 Y7.522 E2.7034
G1 X-4.554 Y7.437 E2.7157
G1 X-4.569 Y7.428 E2.7170
G1 X-5.114 Y7.063 E2.7661
G1 X-5.128 Y7.053 E2.7674
G1 X-5.261 Y6.955 E2.7798
G1 X-5.275 Y6.944 E2.7811
G1 X-5.782 Y6.528 E2.8302
G1 X-5.795 Y6.516 E2.8315
G1 X-5.917 Y6.406 E2.8438
G1 X-5.930 Y6.393 E2.8452
G1 X-6.394 Y5.929 E2.8943
G1 X-6.406 Y5.916 E2.8956
G1 X-6.517 Y5.794 E2.9079
G1 X-6.529 Y5.781 E2.9093
G1 X-6.944 Y5.275 E2.9583
G1 X-6.955 Y5.261 E2.9596
G1 X-7.053 Y5.128 E2.9719
G1 X-7.063 Y5.114 E2.9733
G1 X-7.428 Y4.569 E3.0223
G1 X-7.437 Y4.554 E3.0236
G1 X-7.522 Y4.412 E3.0360
G1 X-7.531 Y4.397 E3.0373
G1 X-7.840 Y3.819 E3.0864
G1 X-7.848 Y3.803 E3.0877
G1 X-7.918 Y3.654 E3.1000
G1 X-7.925 Y3.638 E3.1014
G1 X-8.176 Y3.032 E3.1504
G1 X-8.183 Y3.015 E3.1518
G1 X-8.238 Y2.860 E3.1641
G1 X-8.244 Y2.843 E3.1654
G1 X-8.440 Y2.195 E3.2161
G1 X-8.446 Y2.174 E3.2177
G1 X-8.493 Y1.973 E3.2332
G1 X-8.498 Y1.952 E3.2348
G1 X-8.659 Y1.024 E3.3053
G1 X-8.662 Y1.002 E3.3069
G1 X-8.685 Y0.797 E3.3224
G1 X-8.686 Y0.775 E3.3240
G1 X-8.720 Y0.099 E3.3747
G1 X-8.720 Y0.082 E3.3760
G1 X-8.720 Y-0.083 E3.3883
G1 X-8.720 Y-0.101 E3.3896
G1 X-8.687 Y-0.755 E3.4387
G1 X-8.686 Y-0.773 E3.4400
G1 X-8.670 Y-0.937 E3.4523
G1 X-8.668 Y-0.955 E3.4537
G1 X-8.571 Y-1.604 E3.5028
G1 X-8.568 Y-1.621 E3.5041
G1 X-8.536 Y-1.783 E3.5164
G1 X-8.532 Y-1.800 E3.5178
G1 X-8.373 Y-2.435 E3.5668
G1 X-8.368 Y-2.452 E3.5681
G1 X-8.321 Y-2.610 E3.5804
G1 X-8.315 Y-2.627 E3.5818
G1 X-8.094 Y-3.244 E3.6308
G1 X-8.088 Y-3.261 E3.6321
G1 X-8.025 Y-3.413 E3.6445
G1 X-8.018 Y-3.429 E3.6458
G1 X-7.737 Y-4.022 E3.6949
G1 X-7.729 Y-4.038 E3.6962
G1 X-7.651 Y-4.183 E3.7085
G1 X-7.643 Y-4.199 E3.7099
G1 X-7.306 Y-4.761 E3.7589
G1 X-7.296 Y-4.776 E3.7603
G1 X-7.204 Y-4.913 E3.7726
G1 X-7.194 Y-4.928 E3.7739
G1 X-6.803 Y-5.455 E3.8230
G1 X-6.792 Y-5.469 E3.8244
G1 X-6.688 Y-5.596 E3.8367
G1 X-6.676 Y-5.610 E3.8380
G1 X-6.236 Y-6.095 E3.8871
G1 X-6.224 Y-6.108 E3.8884
G1 X-6.108 Y-6.224 E3.9007
G1 X-6.095 Y-6.237 E3.9020
G1 X-5.609 Y-6.677 E3.9511
G1 X-5.596 Y-6.688 E3.9524
G1 X-5.468 Y-6.793 E3.9648
G1 X-5.454 Y-6.804 E3.9661
G1 X-4.928 Y-7.194 E4.0152
G1 X-4.913 Y-7.205 E4.0165
G1 X-4.776 Y-7.296 E4.0288
G1 X-4.761 Y-7.306 E4.0301
G1 X-4.181 Y-7.653 E4.0807
G1 X-4.162 Y-7.664 E4.0824
G1 X-3.979 Y-7.759 E4.0978
G1 X-3.959 Y-7.769 E4.0995
G1 X-3.758 Y-7.333 F9000
G92 E0
G1 X-2.910 Y-7.709 E0.0694 F840
G1 X-2.903 Y-7.711 E0.0699
G1 X-2.724 Y-7.778 E0.0843
G1 X-2.717 Y-7.780 E0.0848
G1 X-2.082 Y-7.973 E0.1344
G1 X-2.076 Y-7.974 E0.1349
G1 X-1.928 Y-8.012 E0.1464
G1 X-1.922 Y-8.013 E0.1468
G1 X-1.290 Y-8.139 E0.1950
G1 X-1.284 Y-8.140 E0.1955
G1 X-1.133 Y-8.162 E0.2069
G1 X-1.127 Y-8.163 E0.2074
G1 X-0.487 Y-8.226 E0.2555
G1 X-0.481 Y-8.226 E0.2559
G1 X-0.328 Y-8.234 E0.2674
G1 X-0.322 Y-8.234 E0.2678
G1 X0.322 Y-8.234 E0.3160
G1 X0.328 Y-8.234 E0.3165
G1 X0.481 Y-8.226 E0.3279
G1 X0.487 Y-8.226 E0.3284
G1 X1.127 Y-8.163 E0.3765
G1 X1.133 Y-8.162 E0.3770
G1 X1.285 Y-8.140 E0.3885
G1 X1.291 Y-8.139 E0.3889
G1 X1.922 Y-8.013 E0.4371
G1 X1.928 Y-8.012 E0.4375
G1 X2.077 Y-7.974 E0.4490
G1 X2.082 Y-7.973 E0.4494
G1 X2.699 Y-7.786 E0.4977
G1 X2.705 Y-7.784 E0.4981
G1 X2.849 Y-7.732 E0.5096
G1 X2.854 Y-7.730 E0.5100
G1 X3.448 Y-7.484 E0.5581
G1 X3.454 Y-7.482 E0.5586
G1 X3.592 Y-7.416 E0.5700
G1 X3.598 Y-7.413 E0.5705
G1 X4.165 Y-7.110 E0.6187
G1 X4.170 Y-7.107 E0.6191
G1 X4.302 Y-7.028 E0.6306
G1 X4.307 Y-7.025 E0.6310
G1 X4.842 Y-6.667 E0.6792
G1 X4.847 Y-6.664 E0.6796
G1 X4.970 Y-6.573 E0.6911
G1 X4.975 Y-6.569 E0.6915
G1 X5.472 Y-6.161 E0.7397
G1 X5.477 Y-6.157 E0.7402
G1 X5.591 Y-6.054 E0.7516
G1 X5.595 Y-6.050 E0.7521
G1 X6.051 Y-5.594 E0.8003
G1 X6.055 Y-5.590 E0.8008
G1 X6.157 Y-5.476 E0.8122
G1 X6.161 Y-5.472 E0.8127
G1 X6.569 Y-4.975 E0.8608
G1 X6.573 Y-4.970 E0.8612
G1 X6.664 Y-4.847 E0.8727
G1 X6.667 Y-4.842 E0.8731
G1 X7.025 Y-4.307 E0.9213
G1 X7.028 Y-4.302 E0.9217
G1 X7.107 Y-4.170 E0.9332
G1 X7.110 Y-4.165 E0.9337
G1 X7.413 Y-3.598 E0.9818
G1 X7.416 Y-3.592 E0.9823
G1 X7.482 Y-3.454 E0.9937
G1 X7.484 Y-3.448 E0.9942
G1 X7.730 Y-2.854 E1.0424
G1 X7.733 Y-2.848 E1.0428
G1 X7.784 Y-2.704 E1.0543
G1 X7.786 Y-2.698 E1.0547
G1 X7.973 Y-2.081 E1.1030
G1 X7.975 Y-2.076 E1.1034
G1 X8.012 Y-1.927 E1.1149
G1 X8.013 Y-1.921 E1.1153
G1 X8.139 Y-1.290 E1.1634
G1 X8.140 Y-1.285 E1.1639
G1 X8.162 Y-1.133 E1.1753
G1 X8.163 Y-1.127 E1.1758
G1 X8.226 Y-0.486 E1.2240
G1 X8.226 Y-0.480 E1.2245
G1 X8.234 Y-0.327 E1.2359
G1 X8.234 Y-0.321 E1.2364
G1 X8.234 Y0.322 E1.2845
G1 X8.234 Y0.328 E1.2849
G1 X8.226 Y0.481 E1.2964
G1 X8.226 Y0.487 E1.2968
G1 X8.163 Y1.127 E1.3450
G1 X8.162 Y1.133 E1.3454
G1 X8.140 Y1.285 E1.3569
G1 X8.139 Y1.291 E1.3573
G1 X8.013 Y1.922 E1.4055
G1 X8.012 Y1.928 E1.4060
G1 X7.974 Y2.076 E1.4174
G1 X7.973 Y2.082 E1.4179
G1 X7.786 Y2.698 E1.4661
G1 X7.784 Y2.704 E1.4665
G1 X7.732 Y2.848 E1.4780
G1 X7.730 Y2.854 E1.4784
G1 X7.484 Y3.449 E1.5267
G1 X7.481 Y3.455 E1.5271
G1 X7.416 Y3.593 E1.5385
G1 X7.413 Y3.598 E1.5390
G1 X7.110 Y4.165 E1.5871
G1 X7.107 Y4.171 E1.5876
G1 X7.028 Y4.302 E1.5990
G1 X7.025 Y4.307 E1.5995
G1 X6.667 Y4.842 E1.6476
G1 X6.664 Y4.847 E1.6481
G1 X6.573 Y4.970 E1.6595
G1 X6.569 Y4.975 E1.6600
G1 X6.161 Y5.472 E1.7082
G1 X6.157 Y5.477 E1.7086
G1 X6.054 Y5.590 E1.7201
G1 X6.050 Y5.595 E1.7205
G1 X5.595 Y6.050 E1.7687
G1 X5.590 Y6.054 E1.7691
G1 X5.477 Y6.157 E1.7806
G1 X5.472 Y6.161 E1.7811
G1 X4.974 Y6.570 E1.8293
G1 X4.969 Y6.573 E1.8297
G1 X4.846 Y6.664 E1.8412
G1 X4.842 Y6.668 E1.8416
G1 X4.307 Y7.025 E1.8898
G1 X4.302 Y7.028 E1.8902
G1 X4.170 Y7.107 E1.9017
G1 X4.165 Y7.110 E1.9021
G1 X3.598 Y7.413 E1.9503
G1 X3.592 Y7.416 E1.9507
G1 X3.454 Y7.482 E1.9622
G1 X3.448 Y7.484 E1.9626
G1 X2.854 Y7.730 E2.0108
G1 X2.848 Y7.733 E2.0113
G1 X2.704 Y7.784 E2.0227
G1 X2.698 Y7.786 E2.0232
G1 X2.082 Y7.973 E2.0714
G1 X2.076 Y7.974 E2.0718
G1 X1.928 Y8.012 E2.0833
G1 X1.922 Y8.013 E2.0837
G1 X1.290 Y8.139 E2.1319
G1 X1.284 Y8.140 E2.1324
G1 X1.133 Y8.162 E2.1438
G1 X1.127 Y8.163 E2.1443
G1 X0.487 Y8.226 E2.1924
G1 X0.481 Y8.226 E2.1928
G1 X0.328 Y8.234 E2.2043
G1 X0.322 Y8.234 E2.2048
G1 X-0.322 Y8.234 E2.2529
G1 X-0.328 Y8.234 E2.2534
G1 X-0.481 Y8.226 E2.2648
G1 X-0.487 Y8.226 E2.2653
G1 X-1.127 Y8.163 E2.3135
G1 X-1.133 Y8.162 E2.3139
G1 X-1.285 Y8.140 E2.3254
G1 X-1.291 Y8.139 E2.3258
