; G-Code generated by Simplify3D(R) Version 3.0.1
; Feb 3, 2016 at 8:25:38 AM
; Settings Summary
;   processName,KABS-40-25-70
;   applyToModels,delta_calibration_star
;   profileName,KABS-40-25-70 (modified)
;   profileVersion,2015-12-28 13:31:31
;   baseProfile,Rostock MAX v2 (modified)
;   printMaterial,ABS
;   printQuality,High
;   printExtruders,
;   extruderName,Primary Extruder
;   extruderToolheadNumber,0
;   extruderDiameter,0.4
;   extruderAutoWidth,1
;   extruderWidth,0.48
;   extrusionMultiplier,1
;   extruderUseRetract,1
;   extruderRetractionDistance,1
;   extruderExtraRestartDistance,0
;   extruderRetractionZLift,0
;   extruderRetractionSpeed,1500
;   extruderUseCoasting,0
;   extruderCoastingDistance,1
;   extruderUseWipe,0
;   extruderWipeDistance,5
;   primaryExtruder,0
;   layerHeight,0.25
;   topSolidLayers,3
;   bottomSolidLayers,3
;   perimeterOutlines,3
;   printPerimetersInsideOut,1
;   startPointOption,3
;   startPointOriginX,0
;   startPointOriginY,0
;   startPointOriginZ,300
;   sequentialIslands,0
;   spiralVaseMode,0
;   firstLayerHeightPercentage,100
;   firstLayerWidthPercentage,150
;   firstLayerUnderspeed,0.4
;   useRaft,0
;   raftExtruder,0
;   raftLayers,3
;   raftOffset,3
;   raftSeparationDistance,0.14
;   raftInfill,85
;   disableRaftBaseLayers,0
;   useSkirt,1
;   skirtExtruder,0
;   skirtLayers,1
;   skirtOutlines,2
;   skirtOffset,3
;   usePrimePillar,0
;   primePillarExtruder,999
;   primePillarWidth,12
;   primePillarLocation,7
;   primePillarSpeedMultiplier,1
;   useOozeShield,0
;   oozeShieldExtruder,999
;   oozeShieldOffset,10
;   oozeShieldOutlines,1
;   oozeShieldSidewallShape,1
;   oozeShieldSidewallAngle,30
;   oozeShieldSpeedMultiplier,1
;   infillExtruder,0
;   internalInfillPattern,Rectilinear
;   externalInfillPattern,Rectilinear
;   infillPercentage,50
;   outlineOverlapPercentage,5
;   infillExtrusionWidthPercentage,100
;   minInfillLength,5
;   infillLayerInterval,1
;   infillAngles,45,-45
;   overlapInfillAngles,0
;   generateSupport,0
;   supportExtruder,0
;   supportInfillPercentage,40
;   supportExtraInflation,0
;   denseSupportLayers,0
;   denseSupportInfillPercentage,70
;   supportLayerInterval,1
;   supportHorizontalPartOffset,0.3
;   supportUpperSeparationLayers,1
;   supportLowerSeparationLayers,1
;   supportType,0
;   supportGridSpacing,2
;   maxOverhangAngle,45
;   supportAngles,0
;   temperatureName,Primary Extruder,Heated Bed
;   temperatureNumber,0,1
;   temperatureSetpointCount,1,1
;   temperatureSetpointLayers,1,1
;   temperatureSetpointTemperatures,230,100
;   temperatureStabilizeAtStartup,0,0
;   temperatureHeatedBed,0,1
;   temperatureRelayBetweenLayers,0,0
;   temperatureRelayBetweenLoops,0,0
;   fanLayers,1
;   fanSpeeds,0
;   blipFanToFullPower,1
;   adjustSpeedForCooling,0
;   minSpeedLayerTime,15
;   minCoolingSpeedSlowdown,20
;   increaseFanForCooling,0
;   minFanLayerTime,60
;   maxCoolingFanSpeed,100
;   increaseFanForBridging,0
;   bridgingFanSpeed,100
;   use5D,1
;   relativeEdistances,0
;   allowEaxisZeroing,1
;   independentExtruderAxes,0
;   includeM10123,0
;   stickySupport,1
;   applyToolheadOffsets,0
;   gcodeXoffset,0
;   gcodeYoffset,0
;   gcodeZoffset,0
;   overrideMachineDefinition,1
;   machineTypeOverride,1
;   strokeXoverride,240
;   strokeYoverride,240
;   strokeZoverride,230
;   originOffsetXoverride,120
;   originOffsetYoverride,120
;   originOffsetZoverride,40
;   homeXdirOverride,0
;   homeYdirOverride,0
;   homeZdirOverride,1
;   flipXoverride,1
;   flipYoverride,-1
;   flipZoverride,1
;   toolheadOffsets,0,0|0,0|0,0|0,0|0,0|0,0
;   overrideFirmwareConfiguration,1
;   firmwareTypeOverride,RepRap (Marlin/Repetier/Sprinter)
;   GPXconfigOverride,r2
;   baudRateOverride,250000
;   overridePrinterModels,1
;   printerModelsOverride
;   startingGcode,G28 ; home all axes
;   layerChangeGcode,
;   retractionGcode,
;   toolChangeGcode,
;   endingGcode,G91 ; relative positioning,G1 E-1 F300 ; retract the filament a bit before lifting the nozzle to release some of the pressure,G1 Z+1 E-10 F1500 ; move Z up a bit retract filament even more,G28 ; move X to min endstop so the head is out of the way,M107 ; fan off,M104 S0 ; extruder off,M140 S0 ; bed off,G4 S300,M84 ; disable motors
;   createX3G,0
;   celebration,0
;   celebrationSong,Random Song
;   createMB5G,0
;   postProcessing,
;   defaultSpeed,4200
;   outlineUnderspeed,0.7
;   solidInfillUnderspeed,0.8
;   supportUnderspeed,0.8
;   rapidXYspeed,9000
;   rapidZspeed,9000
;   minBridgingArea,50
;   bridgingExtraInflation,0.2
;   bridgingExtrusionMultiplier,0.9
;   bridgingSpeedMultiplier,0.3
;   filamentDiameter,1.75
;   filamentPricePerKg,46
;   filamentDensity,1.25
;   useMinPrintHeight,0
;   minPrintHeight,40
;   useMaxPrintHeight,0
;   maxPrintHeight,0
;   useDiaphragm,0
;   diaphragmLayerInterval,1
;   robustSlicing,0
;   mergeAllIntoSolid,0
;   onlyRetractWhenCrossingOutline,1
;   retractBetweenLayers,1
;   useRetractionMinTravel,1
;   retractionMinTravel,3
;   retractWhileWiping,1
;   onlyWipeOutlines,1
;   avoidCrossingOutline,0
;   maxMovementDetourFactor,3
;   toolChangeRetractionDistance,12
;   toolChangeExtraRestartDistance,-0.5
;   toolChangeRetractionSpeed,600
;   allowThinWallGapFill,1
;   thinWallAllowedOverlapPercentage,10
;   horizontalSizeCompensation,0
G90
M82
M106 S0
M140 S100
M104 S230 T0
G28 ; home all axes
G92 E0
G1 E-1.0000 F1500
G1 Z0.250 F9000
; layer 1, Z = -39.75
; layer 2, Z = -39.5
; layer 3, Z = -39.25
; layer 4, Z = -39
; layer 5, Z = -38.75
; layer 6, Z = -38.5
; layer 7, Z = -38.25
; layer 8, Z = -38
; layer 9, Z = -37.75
; layer 10, Z = -37.5
; layer 11, Z = -37.25
; layer 12, Z = -37
; layer 13, Z = -36.75
; layer 14, Z = -36.5
; layer 15, Z = -36.25
; layer 16, Z = -36
; layer 17, Z = -35.75
; layer 18, Z = -35.5
; layer 19, Z = -35.25
; layer 20, Z = -35
; layer 21, Z = -34.75
; layer 22, Z = -34.5
; layer 23, Z = -34.25
; layer 24, Z = -34
; layer 25, Z = -33.75
; layer 26, Z = -33.5
; layer 27, Z = -33.25
; layer 28, Z = -33
; layer 29, Z = -32.75
; layer 30, Z = -32.5
; layer 31, Z = -32.25
; layer 32, Z = -32
; layer 33, Z = -31.75
; layer 34, Z = -31.5
; layer 35, Z = -31.25
; layer 36, Z = -31
; layer 37, Z = -30.75
; layer 38, Z = -30.5
; layer 39, Z = -30.25
; layer 40, Z = -30
; layer 41, Z = -29.75
; layer 42, Z = -29.5
; layer 43, Z = -29.25
; layer 44, Z = -29
; layer 45, Z = -28.75
; layer 46, Z = -28.5
; layer 47, Z = -28.25
; layer 48, Z = -28
; layer 49, Z = -27.75
; layer 50, Z = -27.5
; layer 51, Z = -27.25
; layer 52, Z = -27
; layer 53, Z = -26.75
; layer 54, Z = -26.5
; layer 55, Z = -26.25
; layer 56, Z = -26
; layer 57, Z = -25.75
; layer 58, Z = -25.5
; layer 59, Z = -25.25
; layer 60, Z = -25
; layer 61, Z = -24.75
; layer 62, Z = -24.5
; layer 63, Z = -24.25
; layer 64, Z = -24
; layer 65, Z = -23.75
; layer 66, Z = -23.5
; layer 67, Z = -23.25
; layer 68, Z = -23
; layer 69, Z = -22.75
; layer 70, Z = -22.5
; layer 71, Z = -22.25
; layer 72, Z = -22
; layer 73, Z = -21.75
; layer 74, Z = -21.5
; layer 75, Z = -21.25
; layer 76, Z = -21
; layer 77, Z = -20.75
; layer 78, Z = -20.5
; layer 79, Z = -20.25
; layer 80, Z = -20
; layer 81, Z = -19.75
; layer 82, Z = -19.5
; layer 83, Z = -19.25
; layer 84, Z = -19
; layer 85, Z = -18.75
; layer 86, Z = -18.5
; layer 87, Z = -18.25
; layer 88, Z = -18
; layer 89, Z = -17.75
; layer 90, Z = -17.5
; layer 91, Z = -17.25
; layer 92, Z = -17
; layer 93, Z = -16.75
; layer 94, Z = -16.5
; layer 95, Z = -16.25
; layer 96, Z = -16
; layer 97, Z = -15.75
; layer 98, Z = -15.5
; layer 99, Z = -15.25
; layer 100, Z = -15
; layer 101, Z = -14.75
; layer 102, Z = -14.5
; layer 103, Z = -14.25
; layer 104, Z = -14
; layer 105, Z = -13.75
; layer 106, Z = -13.5
; layer 107, Z = -13.25
; layer 108, Z = -13
; layer 109, Z = -12.75
; layer 110, Z = -12.5
; layer 111, Z = -12.25
; layer 112, Z = -12
; layer 113, Z = -11.75
; layer 114, Z = -11.5
; layer 115, Z = -11.25
; layer 116, Z = -11
; layer 117, Z = -10.75
; layer 118, Z = -10.5
; layer 119, Z = -10.25
; layer 120, Z = -10
; layer 121, Z = -9.75
; layer 122, Z = -9.5
; layer 123, Z = -9.25
; layer 124, Z = -9
; layer 125, Z = -8.75
; layer 126, Z = -8.5
; layer 127, Z = -8.25
; layer 128, Z = -8
; layer 129, Z = -7.75
; layer 130, Z = -7.5
; layer 131, Z = -7.25
; layer 132, Z = -7
; layer 133, Z = -6.75
; layer 134, Z = -6.5
; layer 135, Z = -6.25
; layer 136, Z = -6
; layer 137, Z = -5.75
; layer 138, Z = -5.5
; layer 139, Z = -5.25
; layer 140, Z = -5
; layer 141, Z = -4.75
; layer 142, Z = -4.5
; layer 143, Z = -4.25
; layer 144, Z = -4
; layer 145, Z = -3.75
; layer 146, Z = -3.5
; layer 147, Z = -3.25
; layer 148, Z = -3
; layer 149, Z = -2.75
; layer 150, Z = -2.5
; layer 151, Z = -2.25
; layer 152, Z = -2
; layer 153, Z = -1.75
; layer 154, Z = -1.5
; layer 155, Z = -1.25
; layer 156, Z = -1
; layer 157, Z = -0.75
; layer 158, Z = -0.5
; layer 159, Z = -0.25
; layer 160, Z = 0
; layer 161, Z = 0.25
T0
; tool H0.250 W0.480
; inner perimeter
G1 X1.175 Y48.675 F9000
G1 E0.0000 F450
G92 E0
G1 X-1.175 Y48.675 E0.1172 F3780
G1 X-1.175 Y2.035 E2.4441
G1 X-41.566 Y25.355 E4.7710
G1 X-42.741 Y23.320 E4.8882
G1 X-2.350 Y0.000 E7.2151
G1 X-42.741 Y-23.320 E9.5420
G1 X-41.566 Y-25.355 E9.6592
G1 X-1.175 Y-2.035 E11.9861
G1 X-1.175 Y-48.675 E14.3129
G1 X1.175 Y-48.675 E14.4302
G1 X1.175 Y-2.035 E16.7571
G1 X41.566 Y-25.355 E19.0839
G1 X42.741 Y-23.320 E19.2012
G1 X2.350 Y0.000 E21.5280
G1 X42.741 Y23.320 E23.8549
G1 X41.566 Y25.355 E23.9722
G1 X1.175 Y2.035 E26.2990
G1 X1.175 Y48.675 E28.6259
; inner perimeter
G1 X1.655 Y49.155 F9000
G92 E0
G1 X-1.655 Y49.155 E0.1651 F3360
G1 X-1.655 Y2.867 E2.4745
G1 X-41.742 Y26.011 E4.7838
G1 X-43.397 Y23.144 E4.9490
G1 X-3.310 Y0.000 E7.2583
G1 X-43.397 Y-23.144 E9.5676
G1 X-41.742 Y-26.011 E9.7328
G1 X-1.655 Y-2.867 E12.0421
G1 X-1.655 Y-49.155 E14.3514
G1 X1.655 Y-49.155 E14.5166
G1 X1.655 Y-2.867 E16.8259
G1 X41.742 Y-26.011 E19.1353
G1 X43.397 Y-23.144 E19.3004
G1 X3.310 Y0.000 E21.6097
G1 X43.397 Y23.144 E23.9191
G1 X41.742 Y26.011 E24.0842
G1 X1.655 Y2.867 E26.3936
G1 X1.655 Y49.155 E28.7029
; outer perimeter
G1 X2.135 Y49.635 F9000
G92 E0
G1 X-2.135 Y49.635 E0.2130 F2940
G1 X-2.135 Y3.698 E2.5048
G1 X-41.918 Y26.666 E4.7966
G1 X-44.053 Y22.969 E5.0097
G1 X-4.270 Y0.000 E7.3015
G1 X-44.053 Y-22.969 E9.5933
G1 X-41.918 Y-26.666 E9.8063
G1 X-2.135 Y-3.698 E12.0981
G1 X-2.135 Y-49.635 E14.3899
G1 X2.135 Y-49.635 E14.6030
G1 X2.135 Y-3.698 E16.8948
G1 X41.918 Y-26.666 E19.1866
G1 X44.053 Y-22.969 E19.3996
G1 X4.270 Y0.000 E21.6914
G1 X44.053 Y22.969 E23.9832
G1 X41.918 Y26.666 E24.1963
G1 X2.135 Y3.698 E26.4881
G1 X2.135 Y49.635 E28.7799
; bridge
G1 X-0.497 Y48.219 F9000
G92 E0
G1 X-0.719 Y47.390 E0.0385 F1260
G1 X-0.719 Y45.536 E0.1218
G1 X0.000 Y48.219 E0.2465
G1 X0.497 Y48.219 E0.2689
G1 X-0.719 Y43.681 E0.4798
G1 X-0.719 Y41.826 E0.5631
G1 X0.719 Y47.193 E0.8125
G1 X0.719 Y45.339 E0.8958
G1 X-0.719 Y39.972 E1.1453
G1 X-0.719 Y38.117 E1.2286
G1 X0.719 Y43.484 E1.4780
G1 X0.719 Y41.629 E1.5613
G1 X-0.719 Y36.263 E1.8108
G1 X-0.719 Y34.408 E1.8940
G1 X0.719 Y39.775 E2.1435
G1 X0.719 Y37.920 E2.2268
G1 X-0.719 Y32.554 E2.4763
G1 X-0.719 Y30.699 E2.5595
G1 X0.719 Y36.066 E2.8090
G1 X0.719 Y34.211 E2.8923
G1 X-0.719 Y28.844 E3.1418
G1 X-0.719 Y26.990 E3.2250
G1 X0.719 Y32.357 E3.4745
G1 X0.719 Y30.502 E3.5578
G1 X-0.719 Y25.135 E3.8072
G1 X-0.719 Y23.281 E3.8905
G1 X0.719 Y28.647 E4.1400
G1 X0.719 Y26.793 E4.2233
G1 X-0.719 Y21.426 E4.4727
G1 X-0.719 Y19.572 E4.5560
G1 X0.719 Y24.938 E4.8055
G1 X0.719 Y23.084 E4.8887
G1 X-0.719 Y17.717 E5.1382
G1 X-0.719 Y15.862 E5.2215
G1 X0.719 Y21.229 E5.4710
G1 X0.719 Y19.374 E5.5542
G1 X-0.719 Y14.008 E5.8037
G1 X-0.719 Y12.153 E5.8870
G1 X0.719 Y17.520 E6.1364
G1 X0.719 Y15.665 E6.2197
G1 X-0.719 Y10.299 E6.4692
G1 X-0.719 Y8.444 E6.5525
G1 X0.719 Y13.811 E6.8019
G1 X0.719 Y11.956 E6.8852
G1 X-0.719 Y6.589 E7.1347
G1 X-0.719 Y4.735 E7.2180
G1 X0.719 Y10.102 E7.4674
G1 X0.719 Y8.247 E7.5507
G1 X-0.719 Y2.880 E7.8002
G1 X-1.484 Y0.026 F9000
G92 E0
G1 X-1.098 Y1.464 E0.0668 F1260
G1 X-1.529 Y1.713 E0.0892
G1 X-1.914 Y0.275 E0.1560
G1 X-2.344 Y0.523 E0.1783
G1 X-1.959 Y1.961 E0.2452
G1 X-2.389 Y2.210 E0.2675
G1 X-2.775 Y0.772 E0.3343
G1 X-3.205 Y1.020 E0.3566
G1 X-2.820 Y2.458 E0.4235
G1 X-3.250 Y2.707 E0.4458
G1 X-3.635 Y1.269 E0.5126
G1 X-4.066 Y1.517 E0.5350
G1 X-3.681 Y2.955 E0.6018
G1 X-4.111 Y3.204 E0.6241
G1 X-4.496 Y1.766 E0.6910
G1 X-4.927 Y2.014 E0.7133
G1 X-4.541 Y3.452 E0.7801
G1 X-4.972 Y3.701 E0.8024
G1 X-5.357 Y2.263 E0.8693
G1 X-5.787 Y2.511 E0.8916
G1 X-5.402 Y3.949 E0.9584
G1 X-5.832 Y4.198 E0.9807
G1 X-6.218 Y2.760 E1.0476
G1 X-6.648 Y3.008 E1.0699
G1 X-6.263 Y4.446 E1.1368
G1 X-6.693 Y4.694 E1.1591
G1 X-7.078 Y3.256 E1.2259
G1 X-7.509 Y3.505 E1.2482
G1 X-7.123 Y4.943 E1.3151
G1 X-7.554 Y5.191 E1.3374
G1 X-7.939 Y3.753 E1.4042
G1 X-8.369 Y4.002 E1.4265
G1 X-7.984 Y5.440 E1.4934
G1 X-8.414 Y5.688 E1.5157
G1 X-8.800 Y4.250 E1.5825
G1 X-9.230 Y4.499 E1.6049
G1 X-8.845 Y5.937 E1.6717
G1 X-9.275 Y6.185 E1.6940
G1 X-9.660 Y4.747 E1.7609
G1 X-10.091 Y4.996 E1.7832
G1 X-9.706 Y6.434 E1.8500
G1 X-10.136 Y6.682 E1.8723
G1 X-10.521 Y5.244 E1.9392
G1 X-10.952 Y5.493 E1.9615
G1 X-10.566 Y6.931 E2.0283
G1 X-10.997 Y7.179 E2.0506
G1 X-11.382 Y5.741 E2.1175
G1 X-11.812 Y5.990 E2.1398
G1 X-11.427 Y7.428 E2.2067
G1 X-11.857 Y7.676 E2.2290
G1 X-12.243 Y6.238 E2.2958
G1 X-12.673 Y6.487 E2.3181
G1 X-12.288 Y7.925 E2.3850
G1 X-12.718 Y8.173 E2.4073
G1 X-13.103 Y6.735 E2.4741
G1 X-13.534 Y6.983 E2.4964
G1 X-13.148 Y8.421 E2.5633
G1 X-13.579 Y8.670 E2.5856
G1 X-13.964 Y7.232 E2.6524
G1 X-14.394 Y7.480 E2.6748
G1 X-14.009 Y8.918 E2.7416
G1 X-14.439 Y9.167 E2.7639
G1 X-14.825 Y7.729 E2.8308
G1 X-15.255 Y7.977 E2.8531
G1 X-14.870 Y9.415 E2.9199
G1 X-15.300 Y9.664 E2.9422
G1 X-15.685 Y8.226 E3.0091
G1 X-16.116 Y8.474 E3.0314
G1 X-15.731 Y9.912 E3.0982
G1 X-16.161 Y10.161 E3.1206
G1 X-16.546 Y8.723 E3.1874
G1 X-16.977 Y8.971 E3.2097
G1 X-16.591 Y10.409 E3.2766
G1 X-17.022 Y10.658 E3.2989
G1 X-17.407 Y9.220 E3.3657
G1 X-17.837 Y9.468 E3.3880
G1 X-17.452 Y10.906 E3.4549
G1 X-17.882 Y11.155 E3.4772
G1 X-18.268 Y9.717 E3.5440
G1 X-18.698 Y9.965 E3.5663
G1 X-18.313 Y11.403 E3.6332
G1 X-18.743 Y11.652 E3.6555
G1 X-19.128 Y10.214 E3.7224
G1 X-19.559 Y10.462 E3.7447
G1 X-19.173 Y11.900 E3.8115
G1 X-19.604 Y12.148 E3.8338
G1 X-19.989 Y10.710 E3.9007
G1 X-20.419 Y10.959 E3.9230
G1 X-20.034 Y12.397 E3.9898
G1 X-20.464 Y12.645 E4.0121
G1 X-20.850 Y11.207 E4.0790
G1 X-21.280 Y11.456 E4.1013
G1 X-20.895 Y12.894 E4.1681
G1 X-21.325 Y13.142 E4.1905
G1 X-21.710 Y11.704 E4.2573
G1 X-22.141 Y11.953 E4.2796
G1 X-21.755 Y13.391 E4.3465
G1 X-22.186 Y13.639 E4.3688
G1 X-22.571 Y12.201 E4.4356
G1 X-23.002 Y12.450 E4.4579
G1 X-22.616 Y13.888 E4.5248
G1 X-23.047 Y14.136 E4.5471
G1 X-23.432 Y12.698 E4.6139
G1 X-23.862 Y12.947 E4.6363
G1 X-23.477 Y14.385 E4.7031
G1 X-23.907 Y14.633 E4.7254
G1 X-24.293 Y13.195 E4.7923
G1 X-24.723 Y13.444 E4.8146
G1 X-24.338 Y14.882 E4.8814
G1 X-24.768 Y15.130 E4.9037
G1 X-25.153 Y13.692 E4.9706
G1 X-25.584 Y13.940 E4.9929
G1 X-25.198 Y15.379 E5.0597
G1 X-25.629 Y15.627 E5.0820
G1 X-26.014 Y14.189 E5.1489
G1 X-26.444 Y14.437 E5.1712
G1 X-26.059 Y15.875 E5.2380
G1 X-26.489 Y16.124 E5.2604
G1 X-26.875 Y14.686 E5.3272
G1 X-27.305 Y14.934 E5.3495
G1 X-26.920 Y16.372 E5.4164
G1 X-27.350 Y16.621 E5.4387
G1 X-27.735 Y15.183 E5.5055
G1 X-28.166 Y15.431 E5.5278
G1 X-27.780 Y16.869 E5.5947
G1 X-28.211 Y17.118 E5.6170
G1 X-28.596 Y15.680 E5.6838
G1 X-29.027 Y15.928 E5.7062
G1 X-28.641 Y17.366 E5.7730
G1 X-29.072 Y17.615 E5.7953
G1 X-29.457 Y16.177 E5.8622
G1 X-29.887 Y16.425 E5.8845
G1 X-29.502 Y17.863 E5.9513
G1 X-29.932 Y18.112 E5.9736
G1 X-30.318 Y16.674 E6.0405
G1 X-30.748 Y16.922 E6.0628
G1 X-30.363 Y18.360 E6.1296
G1 X-30.793 Y18.609 E6.1519
G1 X-31.178 Y17.171 E6.2188
G1 X-31.609 Y17.419 E6.2411
G1 X-31.223 Y18.857 E6.3080
G1 X-31.654 Y19.105 E6.3303
G1 X-32.039 Y17.667 E6.3971
G1 X-32.469 Y17.916 E6.4194
G1 X-32.084 Y19.354 E6.4863
