; G-Code generated by Simplify3D(R) Version 3.1.1
; Feb 12, 2017 at 3:14:31 PM
; Settings Summary
;   processName,K250VS
;   applyToModels,simple_test_print
;   profileName,K250VS
;   profileVersion,2016-12-29 09:46:15
;   baseProfile,Rostock MAX v2 (modified)
;   printMaterial,NOHEAT
;   printQuality,.30 layer - 50% infill
;   printExtruders,
;   extruderName,Primary Extruder
;   extruderToolheadNumber,0
;   extruderDiameter,0.4
;   extruderAutoWidth,1
;   extruderWidth,0.48
;   extrusionMultiplier,1
;   extruderUseRetract,1
;   extruderRetractionDistance,2
;   extruderExtraRestartDistance,0
;   extruderRetractionZLift,0.5
;   extruderRetractionSpeed,1500
;   extruderUseCoasting,1
;   extruderCoastingDistance,0.5
;   extruderUseWipe,1
;   extruderWipeDistance,3
;   primaryExtruder,0
;   layerHeight,0.3001
;   topSolidLayers,3
;   bottomSolidLayers,3
;   perimeterOutlines,2
;   printPerimetersInsideOut,1
;   startPointOption,3
;   startPointOriginX,0
;   startPointOriginY,0
;   startPointOriginZ,300
;   sequentialIslands,0
;   spiralVaseMode,0
;   firstLayerHeightPercentage,100
;   firstLayerWidthPercentage,150
;   firstLayerUnderspeed,0.5
;   useRaft,0
;   raftExtruder,0
;   raftLayers,3
;   raftOffset,3
;   raftSeparationDistance,0.14
;   raftInfill,85
;   disableRaftBaseLayers,0
;   useSkirt,1
;   skirtExtruder,0
;   skirtLayers,2
;   skirtOutlines,2
;   skirtOffset,3
;   usePrimePillar,0
;   primePillarExtruder,999
;   primePillarWidth,12
;   primePillarLocation,7
;   primePillarSpeedMultiplier,1
;   useOozeShield,0
;   oozeShieldExtruder,999
;   oozeShieldOffset,2
;   oozeShieldOutlines,1
;   oozeShieldSidewallShape,1
;   oozeShieldSidewallAngle,30
;   oozeShieldSpeedMultiplier,1
;   infillExtruder,0
;   internalInfillPattern,Rectilinear
;   externalInfillPattern,Rectilinear
;   infillPercentage,50
;   outlineOverlapPercentage,5
;   infillExtrusionWidthPercentage,100
;   minInfillLength,5
;   infillLayerInterval,1
;   infillAngles,45,-45
;   overlapInfillAngles,0
;   generateSupport,0
;   supportExtruder,0
;   supportInfillPercentage,40
;   supportExtraInflation,0
;   denseSupportLayers,0
;   denseSupportInfillPercentage,70
;   supportLayerInterval,1
;   supportHorizontalPartOffset,0.3
;   supportUpperSeparationLayers,1
;   supportLowerSeparationLayers,1
;   supportType,0
;   supportGridSpacing,2
;   maxOverhangAngle,45
;   supportAngles,0
;   temperatureName,Primary Extruder,Heated Bed
;   temperatureNumber,0,1
;   temperatureSetpointCount,1,1
;   temperatureSetpointLayers,1,1
;   temperatureSetpointTemperatures,0,0
;   temperatureStabilizeAtStartup,0,0
;   temperatureHeatedBed,0,1
;   temperatureRelayBetweenLayers,0,0
;   temperatureRelayBetweenLoops,0,0
;   fanLayers,1,2,3,4,5
;   fanSpeeds,0,20,30,40,50
;   blipFanToFullPower,1
;   adjustSpeedForCooling,1
;   minSpeedLayerTime,15
;   minCoolingSpeedSlowdown,20
;   increaseFanForCooling,1
;   minFanLayerTime,60
;   maxCoolingFanSpeed,100
;   increaseFanForBridging,1
;   bridgingFanSpeed,100
;   use5D,1
;   relativeEdistances,0
;   allowEaxisZeroing,1
;   independentExtruderAxes,0
;   includeM10123,0
;   stickySupport,1
;   applyToolheadOffsets,0
;   gcodeXoffset,0
;   gcodeYoffset,0
;   gcodeZoffset,0
;   overrideMachineDefinition,1
;   machineTypeOverride,1
;   strokeXoverride,240
;   strokeYoverride,240
;   strokeZoverride,230
;   originOffsetXoverride,120
;   originOffsetYoverride,120
;   originOffsetZoverride,0
;   homeXdirOverride,0
;   homeYdirOverride,0
;   homeZdirOverride,1
;   flipXoverride,1
;   flipYoverride,-1
;   flipZoverride,1
;   toolheadOffsets,0,0|0,0|0,0|0,0|0,0|0,0
;   overrideFirmwareConfiguration,1
;   firmwareTypeOverride,RepRap (Marlin/Repetier/Sprinter)
;   GPXconfigOverride,r2
;   baudRateOverride,250000
;   overridePrinterModels,1
;   printerModelsOverride
;   startingGcode,G28 ; home all axes
;   layerChangeGcode,
;   retractionGcode,
;   toolChangeGcode,
;   endingGcode,G91 ; relative positioning,G1 E-1 F300 ; retract the filament a bit before lifting the nozzle to release some of the pressure,G1 Z+1 E-10 F1500 ; move Z up a bit retract filament even more,G28 ; move X to min endstop so the head is out of the way,M107 ; fan off,M104 S0 ; extruder off,M140 S0 ; bed off,;G4 S300,;M84 ; disable motors
;   exportFileFormat,gcode
;   celebration,0
;   celebrationSong,Random Song
;   postProcessing,
;   defaultSpeed,4500
;   outlineUnderspeed,0.7
;   solidInfillUnderspeed,0.8
;   supportUnderspeed,0.8
;   rapidXYspeed,18000
;   rapidZspeed,9000
;   minBridgingArea,50
;   bridgingExtraInflation,0
;   bridgingExtrusionMultiplier,0.95
;   bridgingSpeedMultiplier,0.7
;   filamentDiameter,1.75
;   filamentPricePerKg,25
;   filamentDensity,1.25
;   useMinPrintHeight,0
;   minPrintHeight,0
;   useMaxPrintHeight,0
;   maxPrintHeight,0
;   useDiaphragm,0
;   diaphragmLayerInterval,1
;   robustSlicing,0
;   mergeAllIntoSolid,0
;   onlyRetractWhenCrossingOutline,1
;   retractBetweenLayers,1
;   useRetractionMinTravel,1
;   retractionMinTravel,3
;   retractWhileWiping,1
;   onlyWipeOutlines,1
;   avoidCrossingOutline,0
;   maxMovementDetourFactor,3
;   toolChangeRetractionDistance,12
;   toolChangeExtraRestartDistance,-0.5
;   toolChangeRetractionSpeed,600
;   allowThinWallGapFill,1
;   thinWallAllowedOverlapPercentage,10
;   horizontalSizeCompensation,0
G90
M82
M106 S0
M140 S0
M104 S0 T0
G28 ; home all axes
G92 E0
G1 E-2.0000 F1500
G1 Z0.800 F9000
; layer 1, Z = 0.3001
T0
; tool H0.300 W0.720
; skirt
G1 X23.669 Y-0.100 F18000
G1 Z0.300 F9000
G1 E0.0000 F450
G92 E0
G1 X23.669 Y-0.093 E0.0006 F2250
G1 X23.670 Y-0.035 E0.0058
G1 X23.670 Y-0.029 E0.0063
G1 X23.670 Y21.336 E1.9256
G1 X23.561 Y21.601 E1.9513
G1 X21.601 Y23.561 E2.2003
G1 X21.336 Y23.670 E2.2261
G1 X-21.336 Y23.670 E6.0594
G1 X-21.601 Y23.561 E6.0851
G1 X-23.561 Y21.601 E6.3341
G1 X-23.670 Y21.336 E6.3598
G1 X-23.670 Y-0.029 E8.2791
G1 X-23.670 Y-0.035 E8.2797
G1 X-23.669 Y-0.093 E8.2849
G1 X-23.669 Y-0.100 E8.2854
G1 X-23.618 Y-1.564 E8.4171
G1 X-23.618 Y-1.577 E8.4182
G1 X-23.610 Y-1.693 E8.4287
G1 X-23.609 Y-1.705 E8.4298
G1 X-23.455 Y-3.177 E8.5628
G1 X-23.454 Y-3.187 E8.5636
G1 X-23.443 Y-3.273 E8.5714
G1 X-23.442 Y-3.282 E8.5723
G1 X-23.324 Y-4.035 E8.6407
G1 X-23.323 Y-4.041 E8.6413
G1 X-23.313 Y-4.099 E8.6465
G1 X-23.311 Y-4.105 E8.6471
G1 X-23.168 Y-4.853 E8.7155
G1 X-23.166 Y-4.862 E8.7163
G1 X-23.147 Y-4.947 E8.7242
G1 X-23.145 Y-4.956 E8.7250
G1 X-22.790 Y-6.393 E8.8580
G1 X-22.787 Y-6.405 E8.8591
G1 X-22.755 Y-6.517 E8.8695
G1 X-22.752 Y-6.529 E8.8707
G1 X-22.299 Y-7.938 E9.0036
G1 X-22.296 Y-7.947 E9.0045
G1 X-22.267 Y-8.029 E9.0123
G1 X-22.264 Y-8.038 E9.0131
G1 X-21.993 Y-8.751 E9.0816
G1 X-21.991 Y-8.756 E9.0821
G1 X-21.969 Y-8.810 E9.0874
G1 X-21.967 Y-8.816 E9.0879
G1 X-21.672 Y-9.519 E9.1564
G1 X-21.668 Y-9.527 E9.1572
G1 X-21.633 Y-9.607 E9.1650
G1 X-21.629 Y-9.615 E9.1659
G1 X-20.986 Y-10.949 E9.2989
G1 X-20.980 Y-10.960 E9.3000
G1 X-20.926 Y-11.062 E9.3104
G1 X-20.920 Y-11.073 E9.3115
G1 X-20.179 Y-12.372 E9.4458
G1 X-20.173 Y-12.382 E9.4469
G1 X-20.112 Y-12.481 E9.4574
G1 X-20.105 Y-12.492 E9.4585
G1 X-19.277 Y-13.736 E9.5928
G1 X-19.270 Y-13.746 E9.5939
G1 X-19.202 Y-13.841 E9.6043
G1 X-19.195 Y-13.851 E9.6054
G1 X-18.282 Y-15.035 E9.7397
G1 X-18.274 Y-15.044 E9.7408
G1 X-18.200 Y-15.134 E9.7513
G1 X-18.192 Y-15.143 E9.7524
G1 X-17.200 Y-16.261 E9.8867
G1 X-17.192 Y-16.270 E9.8878
G1 X-17.112 Y-16.355 E9.8982
G1 X-17.103 Y-16.363 E9.8993
G1 X-16.036 Y-17.410 E10.0336
G1 X-16.027 Y-17.419 E10.0347
G1 X-15.941 Y-17.497 E10.0452
G1 X-15.932 Y-17.506 E10.0463
G1 X-14.795 Y-18.476 E10.1806
G1 X-14.785 Y-18.484 E10.1817
G1 X-14.695 Y-18.557 E10.1921
G1 X-14.685 Y-18.564 E10.1932
G1 X-13.484 Y-19.454 E10.3275
G1 X-13.474 Y-19.461 E10.3286
G1 X-13.378 Y-19.527 E10.3391
G1 X-13.367 Y-19.534 E10.3402
G1 X-12.108 Y-20.339 E10.4745
G1 X-12.097 Y-20.345 E10.4756
G1 X-11.997 Y-20.404 E10.4860
G1 X-11.986 Y-20.411 E10.4871
G1 X-10.674 Y-21.126 E10.6214
G1 X-10.663 Y-21.132 E10.6225
G1 X-10.559 Y-21.184 E10.6330
G1 X-10.548 Y-21.190 E10.6341
G1 X-9.190 Y-21.813 E10.7684
G1 X-9.178 Y-21.818 E10.7695
G1 X-9.071 Y-21.863 E10.7799
G1 X-9.059 Y-21.868 E10.7810
G1 X-7.661 Y-22.396 E10.9153
G1 X-7.649 Y-22.400 E10.9164
G1 X-7.539 Y-22.437 E10.9269
G1 X-7.528 Y-22.441 E10.9280
G1 X-6.096 Y-22.871 E11.0623
G1 X-6.084 Y-22.875 E11.0634
G1 X-5.972 Y-22.904 E11.0738
G1 X-5.960 Y-22.907 E11.0749
G1 X-4.502 Y-23.238 E11.2092
G1 X-4.490 Y-23.240 E11.2103
G1 X-4.375 Y-23.262 E11.2208
G1 X-4.363 Y-23.264 E11.2219
G1 X-2.886 Y-23.493 E11.3562
G1 X-2.874 Y-23.495 E11.3573
G1 X-2.758 Y-23.509 E11.3677
G1 X-2.746 Y-23.510 E11.3688
G1 X-1.258 Y-23.636 E11.5030
G1 X-1.246 Y-23.637 E11.5041
G1 X-1.133 Y-23.643 E11.5143
G1 X-1.121 Y-23.643 E11.5154
G1 X0.289 Y-23.668 E11.6420
G1 X0.298 Y-23.668 E11.6428
G1 X0.382 Y-23.667 E11.6504
G1 X0.391 Y-23.667 E11.6512
G1 X1.166 Y-23.641 E11.7208
G1 X1.175 Y-23.641 E11.7216
G1 X1.262 Y-23.636 E11.7295
G1 X1.271 Y-23.635 E11.7303
G1 X2.746 Y-23.510 E11.8633
G1 X2.758 Y-23.509 E11.8644
G1 X2.874 Y-23.495 E11.8748
G1 X2.886 Y-23.493 E11.8759
G1 X4.363 Y-23.264 E12.0102
G1 X4.375 Y-23.262 E12.0113
G1 X4.490 Y-23.240 E12.0218
G1 X4.502 Y-23.238 E12.0229
G1 X5.960 Y-22.907 E12.1572
G1 X5.972 Y-22.904 E12.1583
G1 X6.084 Y-22.875 E12.1687
G1 X6.096 Y-22.871 E12.1698
G1 X7.528 Y-22.441 E12.3041
G1 X7.539 Y-22.437 E12.3052
G1 X7.649 Y-22.400 E12.3157
G1 X7.661 Y-22.396 E12.3168
G1 X9.059 Y-21.868 E12.4511
G1 X9.071 Y-21.863 E12.4522
G1 X9.178 Y-21.818 E12.4626
G1 X9.190 Y-21.813 E12.4637
G1 X10.548 Y-21.190 E12.5980
G1 X10.559 Y-21.184 E12.5991
G1 X10.663 Y-21.132 E12.6096
G1 X10.674 Y-21.126 E12.6107
G1 X11.986 Y-20.411 E12.7450
G1 X11.997 Y-20.404 E12.7461
G1 X12.097 Y-20.345 E12.7565
G1 X12.108 Y-20.339 E12.7576
G1 X13.367 Y-19.534 E12.8919
G1 X13.378 Y-19.527 E12.8930
G1 X13.474 Y-19.461 E12.9035
G1 X13.484 Y-19.454 E12.9046
G1 X14.685 Y-18.564 E13.0389
G1 X14.695 Y-18.557 E13.0400
G1 X14.785 Y-18.484 E13.0504
G1 X14.795 Y-18.476 E13.0515
G1 X15.932 Y-17.506 E13.1858
G1 X15.941 Y-17.497 E13.1869
G1 X16.027 Y-17.419 E13.1974
G1 X16.036 Y-17.410 E13.1985
G1 X17.103 Y-16.363 E13.3328
G1 X17.112 Y-16.355 E13.3339
G1 X17.192 Y-16.270 E13.3443
G1 X17.200 Y-16.261 E13.3455
G1 X18.192 Y-15.143 E13.4797
G1 X18.200 Y-15.134 E13.4808
G1 X18.274 Y-15.044 E13.4913
G1 X18.282 Y-15.035 E13.4924
G1 X19.186 Y-13.862 E13.6254
G1 X19.191 Y-13.854 E13.6262
G1 X19.243 Y-13.784 E13.6341
G1 X19.248 Y-13.777 E13.6349
G1 X19.690 Y-13.138 E13.7046
G1 X19.695 Y-13.130 E13.7055
G1 X19.742 Y-13.057 E13.7133
G1 X19.747 Y-13.049 E13.7141
G1 X20.525 Y-11.790 E13.8471
G1 X20.531 Y-11.779 E13.8482
G1 X20.589 Y-11.678 E13.8587
G1 X20.595 Y-11.667 E13.8598
G1 X21.283 Y-10.357 E13.9928
G1 X21.288 Y-10.348 E13.9936
G1 X21.326 Y-10.270 E14.0014
G1 X21.330 Y-10.262 E14.0023
G1 X21.655 Y-9.557 E14.0720
G1 X21.659 Y-9.548 E14.0729
G1 X21.694 Y-9.468 E14.0807
G1 X21.697 Y-9.459 E14.0815
G1 X22.246 Y-8.085 E14.2145
G1 X22.251 Y-8.073 E14.2156
G1 X22.290 Y-7.964 E14.2261
G1 X22.294 Y-7.952 E14.2272
G1 X22.752 Y-6.529 E14.3615
G1 X22.755 Y-6.517 E14.3626
G1 X22.787 Y-6.405 E14.3730
G1 X22.790 Y-6.393 E14.3741
G1 X23.145 Y-4.956 E14.5071
G1 X23.147 Y-4.947 E14.5079
G1 X23.166 Y-4.862 E14.5158
G1 X23.168 Y-4.853 E14.5166
G1 X23.311 Y-4.105 E14.5851
G1 X23.313 Y-4.099 E14.5856
G1 X23.323 Y-4.041 E14.5908
G1 X23.324 Y-4.035 E14.5914
G1 X23.442 Y-3.282 E14.6599
G1 X23.443 Y-3.273 E14.6607
G1 X23.454 Y-3.187 E14.6685
G1 X23.455 Y-3.177 E14.6694
G1 X23.609 Y-1.705 E14.8023
G1 X23.610 Y-1.693 E14.8035
G1 X23.618 Y-1.577 E14.8139
G1 X23.618 Y-1.564 E14.8150
G1 X23.652 Y-0.599 E14.9018
G1 X23.669 Y-0.100 F2250
G1 X23.189 Y-0.085 F18000
G92 E0
G1 X23.189 Y-0.083 E0.0002 F2250
G1 X23.190 Y-0.029 E0.0050
G1 X23.190 Y-0.027 E0.0052
G1 X23.190 Y21.241 E1.9157
G1 X23.154 Y21.329 E1.9243
G1 X21.329 Y23.154 E2.1561
G1 X21.241 Y23.190 E2.1647
G1 X-21.241 Y23.190 E5.9809
G1 X-21.329 Y23.154 E5.9895
G1 X-23.154 Y21.329 E6.2213
G1 X-23.190 Y21.241 E6.2299
G1 X-23.190 Y-0.027 E8.1404
G1 X-23.190 Y-0.029 E8.1406
G1 X-23.189 Y-0.083 E8.1454
G1 X-23.189 Y-0.085 E8.1456
G1 X-23.139 Y-1.544 E8.2767
G1 X-23.139 Y-1.548 E8.2771
G1 X-23.131 Y-1.655 E8.2868
G1 X-23.131 Y-1.660 E8.2871
G1 X-22.978 Y-3.125 E8.4195
G1 X-22.978 Y-3.128 E8.4198
G1 X-22.967 Y-3.208 E8.4270
G1 X-22.967 Y-3.211 E8.4273
G1 X-22.850 Y-3.959 E8.4953
G1 X-22.849 Y-3.961 E8.4955
G1 X-22.840 Y-4.014 E8.5003
G1 X-22.840 Y-4.016 E8.5005
G1 X-22.697 Y-4.759 E8.5685
G1 X-22.696 Y-4.762 E8.5688
G1 X-22.679 Y-4.841 E8.5760
G1 X-22.678 Y-4.844 E8.5763
G1 X-22.325 Y-6.274 E8.7086
G1 X-22.324 Y-6.278 E8.7090
G1 X-22.295 Y-6.382 E8.7187
G1 X-22.293 Y-6.386 E8.7191
G1 X-21.843 Y-7.789 E8.8514
G1 X-21.842 Y-7.792 E8.8517
G1 X-21.815 Y-7.868 E8.8590
G1 X-21.814 Y-7.871 E8.8592
G1 X-21.545 Y-8.578 E8.9272
G1 X-21.544 Y-8.580 E8.9274
G1 X-21.524 Y-8.630 E8.9322
G1 X-21.524 Y-8.632 E8.9324
G1 X-21.231 Y-9.330 E9.0004
G1 X-21.229 Y-9.333 E9.0007
G1 X-21.196 Y-9.407 E9.0080
G1 X-21.195 Y-9.409 E9.0082
G1 X-20.555 Y-10.736 E9.1406
G1 X-20.553 Y-10.740 E9.1409
G1 X-20.503 Y-10.835 E9.1506
G1 X-20.501 Y-10.839 E9.1510
G1 X-19.765 Y-12.130 E9.2845
G1 X-19.762 Y-12.134 E9.2849
G1 X-19.706 Y-12.226 E9.2946
G1 X-19.704 Y-12.229 E9.2950
G1 X-18.880 Y-13.466 E9.4285
G1 X-18.877 Y-13.470 E9.4289
G1 X-18.814 Y-13.557 E9.4386
G1 X-18.812 Y-13.561 E9.4389
G1 X-17.904 Y-14.738 E9.5725
G1 X-17.902 Y-14.741 E9.5729
G1 X-17.833 Y-14.825 E9.5826
G1 X-17.830 Y-14.828 E9.5829
G1 X-16.844 Y-15.940 E9.7165
G1 X-16.841 Y-15.943 E9.7168
G1 X-16.767 Y-16.021 E9.7265
G1 X-16.764 Y-16.024 E9.7269
G1 X-15.703 Y-17.065 E9.8604
G1 X-15.700 Y-17.068 E9.8608
G1 X-15.620 Y-17.140 E9.8705
G1 X-15.617 Y-17.143 E9.8709
G1 X-14.486 Y-18.109 E10.0044
G1 X-14.483 Y-18.111 E10.0048
G1 X-14.399 Y-18.178 E10.0145
G1 X-14.396 Y-18.181 E10.0148
G1 X-13.201 Y-19.066 E10.1484
G1 X-13.198 Y-19.068 E10.1487
G1 X-13.109 Y-19.129 E10.1584
G1 X-13.106 Y-19.132 E10.1588
G1 X-11.853 Y-19.932 E10.2923
G1 X-11.849 Y-19.934 E10.2927
G1 X-11.757 Y-19.989 E10.3024
G1 X-11.753 Y-19.991 E10.3028
G1 X-10.448 Y-20.703 E10.4363
G1 X-10.444 Y-20.705 E10.4367
G1 X-10.348 Y-20.753 E10.4464
G1 X-10.344 Y-20.755 E10.4467
G1 X-8.993 Y-21.375 E10.5803
G1 X-8.989 Y-21.377 E10.5807
G1 X-8.890 Y-21.418 E10.5903
G1 X-8.886 Y-21.420 E10.5907
G1 X-7.495 Y-21.945 E10.7243
G1 X-7.491 Y-21.947 E10.7246
G1 X-7.389 Y-21.981 E10.7343
G1 X-7.385 Y-21.983 E10.7347
G1 X-5.962 Y-22.411 E10.8682
G1 X-5.958 Y-22.412 E10.8686
G1 X-5.853 Y-22.439 E10.8783
G1 X-5.849 Y-22.440 E10.8787
G1 X-4.400 Y-22.769 E11.0122
G1 X-4.396 Y-22.770 E11.0126
G1 X-4.290 Y-22.790 E11.0223
G1 X-4.286 Y-22.790 E11.0226
G1 X-2.817 Y-23.018 E11.1562
G1 X-2.813 Y-23.019 E11.1565
G1 X-2.705 Y-23.032 E11.1662
G1 X-2.701 Y-23.032 E11.1666
G1 X-1.222 Y-23.158 E11.3000
G1 X-1.217 Y-23.158 E11.3004
G1 X-1.112 Y-23.163 E11.3098
G1 X-1.108 Y-23.163 E11.3102
G1 X0.294 Y-23.188 E11.4362
G1 X0.297 Y-23.188 E11.4365
G1 X0.375 Y-23.187 E11.4435
G1 X0.378 Y-23.187 E11.4437
G1 X1.147 Y-23.162 E11.5128
G1 X1.150 Y-23.162 E11.5131
G1 X1.231 Y-23.157 E11.5204
G1 X1.234 Y-23.157 E11.5206
G1 X2.701 Y-23.032 E11.6530
G1 X2.705 Y-23.032 E11.6533
G1 X2.813 Y-23.019 E11.6630
G1 X2.817 Y-23.018 E11.6634
G1 X4.286 Y-22.790 E11.7969
G1 X4.290 Y-22.790 E11.7973
G1 X4.396 Y-22.770 E11.8070
G1 X4.400 Y-22.769 E11.8074
G1 X5.849 Y-22.440 E11.9409
G1 X5.853 Y-22.439 E11.9413
G1 X5.958 Y-22.412 E11.9510
G1 X5.962 Y-22.411 E11.9513
G1 X7.385 Y-21.983 E12.0849
G1 X7.389 Y-21.981 E12.0853
G1 X7.491 Y-21.947 E12.0949
G1 X7.495 Y-21.945 E12.0953
G1 X8.886 Y-21.420 E12.2289
G1 X8.890 Y-21.418 E12.2292
G1 X8.989 Y-21.377 E12.2389
G1 X8.993 Y-21.375 E12.2393
G1 X10.344 Y-20.755 E12.3728
G1 X10.348 Y-20.753 E12.3732
G1 X10.444 Y-20.705 E12.3829
G1 X10.448 Y-20.703 E12.3833
G1 X11.753 Y-19.991 E12.5168
G1 X11.757 Y-19.989 E12.5172
G1 X11.849 Y-19.934 E12.5269
G1 X11.853 Y-19.932 E12.5272
G1 X13.106 Y-19.132 E12.6608
G1 X13.109 Y-19.129 E12.6611
G1 X13.198 Y-19.068 E12.6708
G1 X13.201 Y-19.066 E12.6712
