; generated by Slic3r 1.1.7 on 2017-03-22 at 13:42:11

; perimeters extrusion width = 0.40mm
; infill extrusion width = 0.42mm
; solid infill extrusion width = 0.42mm
; top infill extrusion width = 0.42mm

G21 ; set units to millimeters
G28


G90 ; use absolute coordinates
G92 E0
M82 ; use absolute distances for extrusion
G1 Z100.300 F10800.000
G1 F1500.000 E-2.00000
G1 Z100.800 F10800.000
G92 E0
G1 X24.176 Y-41.873 F10800.000
G1 Z100.300 F10800.000
G1 E2.00000 F1500.000
G1 X43.951 Y-30.456 E3.02532 F2520.000
G1 X45.342 Y-29.065 E3.11364
G1 X47.842 Y-24.735 E3.33814
G1 X48.351 Y-22.835 E3.42646
G1 X48.351 Y22.835 E5.47710
G1 X47.842 Y24.735 E5.56542
G1 X45.342 Y29.065 E5.78992
G1 X43.951 Y30.456 E5.87825
G1 X4.400 Y53.291 E7.92888
G1 X2.500 Y53.800 E8.01720
G1 X-2.500 Y53.800 E8.24170
G1 X-4.400 Y53.291 E8.33003
G1 X-43.951 Y30.456 E10.38066
G1 X-45.342 Y29.065 E10.46898
G1 X-47.842 Y24.735 E10.69349
G1 X-48.351 Y22.835 E10.78181
G1 X-48.351 Y-22.835 E12.83244
G1 X-47.842 Y-24.735 E12.92076
G1 X-45.342 Y-29.065 E13.14527
G1 X-43.951 Y-30.456 E13.23359
G1 X-4.400 Y-53.291 E15.28422
G1 X-2.500 Y-53.800 E15.37254
G1 X2.500 Y-53.800 E15.59705
G1 X4.400 Y-53.291 E15.68537
G1 X24.124 Y-41.903 E16.70799 F2520.000
G1 X23.976 Y-41.527 F10800.000
G1 X43.751 Y-30.110 E17.73331 F2520.000
G1 X44.996 Y-28.865 E17.81233
G1 X47.496 Y-24.535 E18.03684
G1 X47.951 Y-22.835 E18.11586
G1 X47.951 Y22.835 E20.16649
G1 X47.496 Y24.535 E20.24552
G1 X44.996 Y28.865 E20.47002
G1 X43.751 Y30.110 E20.54905
G1 X4.200 Y52.944 E22.59968
G1 X2.500 Y53.400 E22.67870
G1 X-2.500 Y53.400 E22.90321
G1 X-4.200 Y52.944 E22.98223
G1 X-43.751 Y30.110 E25.03287
G1 X-44.996 Y28.865 E25.11189
G1 X-47.496 Y24.535 E25.33640
G1 X-47.951 Y22.835 E25.41542
G1 X-47.951 Y-22.835 E27.46605
G1 X-47.496 Y-24.535 E27.54508
G1 X-44.996 Y-28.865 E27.76958
G1 X-43.751 Y-30.110 E27.84861
G1 X-4.200 Y-52.944 E29.89924
G1 X-2.500 Y-53.400 E29.97826
G1 X2.500 Y-53.400 E30.20277
G1 X4.200 Y-52.944 E30.28179
G1 X23.924 Y-41.557 E31.30442 F2520.000
G1 X23.924 Y-41.557 F8640.000
G1 F1500.000 E29.30442
G1 Z100.800 F10800.000
G92 E0
G1 X-1.800 Y-3.118 F10800.000
G1 Z100.300 F10800.000
G1 E2.00000 F1500.000
G1 X-1.800 Y-49.300 E4.07364 F2940.000
G1 X1.800 Y-49.300 E4.23528
G1 X1.800 Y-3.118 E6.30893
G1 X41.795 Y-26.209 E8.38257
G1 X43.595 Y-23.091 E8.54421
G1 X3.600 Y-0.000 E10.61785
G1 X43.595 Y23.091 E12.69149
G1 X41.795 Y26.209 E12.85313
G1 X1.800 Y3.118 E14.92678
G1 X1.800 Y49.300 E17.00042
G1 X-1.800 Y49.300 E17.16206
G1 X-1.800 Y3.118 E19.23570
G1 X-41.795 Y26.209 E21.30934
G1 X-43.595 Y23.091 E21.47099
G1 X-3.600 Y0.000 E23.54463
G1 X-43.595 Y-23.091 E25.61827
G1 X-41.795 Y-26.209 E25.77991
G1 X-1.852 Y-3.148 E27.85086
G1 X-2.200 Y-3.811 F10800.000
G1 X-2.200 Y-49.700 E29.91135 F2940.000
G1 X2.200 Y-49.700 E30.10891
G1 X2.200 Y-3.811 E32.16941
G1 X41.941 Y-26.755 E34.22990
G1 X44.141 Y-22.945 E34.42746
G1 X4.400 Y-0.000 E36.48796
G1 X44.141 Y22.945 E38.54845
G1 X41.941 Y26.755 E38.74601
G1 X2.200 Y3.811 E40.80651
G1 X2.200 Y49.700 E42.86700
G1 X-2.200 Y49.700 E43.06456
G1 X-2.200 Y3.811 E45.12506
G1 X-41.941 Y26.755 E47.18555
G1 X-44.141 Y22.945 E47.38311
G1 X-4.400 Y0.000 E49.44361
G1 X-44.141 Y-22.945 E51.50410
G1 X-41.941 Y-26.755 E51.70166
G1 X-2.252 Y-3.841 E53.75946
G1 X-1.806 Y-3.741 F10800.000
G1 X-1.526 Y-2.859 F10800.000
G1 X28.915 Y18.456 E55.50679 F3780.000
G1 X29.383 Y15.203 F10800.000
G1 X42.522 Y24.402 E56.26094 F3780.000
G1 X43.153 Y23.309 F10800.000
G1 X41.876 Y22.415 E56.33422 F3780.000
G1 X37.243 Y23.264 F10800.000
G1 X8.563 Y3.182 E57.98053 F3780.000
G1 X8.094 Y6.435 F10800.000
G1 X-20.587 Y-13.647 E59.62683 F3780.000
G1 X-21.055 Y-10.394 F10800.000
G1 X-42.101 Y-25.131 E60.83489 F3780.000
G1 X-41.891 Y-25.495 E60.85467
G1 X-16.891 Y-7.990 E62.28968
G1 X-16.422 Y-11.243 F10800.000
G1 X12.258 Y8.839 E63.93598 F3780.000
G1 X12.727 Y5.586 F10800.000
G1 X41.407 Y25.668 E65.58228 F3780.000
G1 X41.890 Y25.495 E65.60642
G1 X16.891 Y7.990 E67.04143
G1 X16.422 Y11.243 F10800.000
G1 X-12.258 Y-8.839 E68.68773 F3780.000
G1 X-12.727 Y-5.586 F10800.000
G1 X-41.407 Y-25.668 E70.33404 F3780.000
G1 X-42.311 Y-24.766 F10800.000
G1 X-25.219 Y-12.799 E71.31514 F3780.000
G1 X-24.751 Y-16.052 F10800.000
G1 X3.930 Y4.031 E72.96144 F3780.000
G1 X1.526 Y3.882 F10800.000
G1 X-3.582 Y0.306 E73.25460 F3780.000
G1 X-3.982 Y0.537 E73.27635
G1 X1.526 Y4.394 E73.59250
G1 X1.526 Y4.905 E73.61655
G1 X-4.382 Y0.768 E73.95569
G1 X-4.783 Y1.000 E73.97743
G1 X-2.025 Y2.931 E74.13575
G1 X-2.425 Y3.162 E74.15749
G1 X-5.183 Y1.231 E74.31581
G1 X-5.584 Y1.462 E74.33755
G1 X-2.826 Y3.393 E74.49587
G1 X-3.226 Y3.624 E74.51761
G1 X-5.984 Y1.693 E74.67593
G1 X-6.385 Y1.924 E74.69767
G1 X-3.627 Y3.856 E74.85599
G1 X-4.027 Y4.087 E74.87773
G1 X-6.785 Y2.156 E75.03605
G1 X-7.186 Y2.387 E75.05779
G1 X-4.427 Y4.318 E75.21611
G1 X-4.828 Y4.549 E75.23785
G1 X-7.586 Y2.618 E75.39617
G1 X-7.986 Y2.849 E75.41792
G1 X-5.228 Y4.780 E75.57623
G1 X-5.629 Y5.012 E75.59798
G1 X-8.387 Y3.080 E75.75629
G1 X-8.787 Y3.312 E75.77804
G1 X-6.029 Y5.243 E75.93635
G1 X-6.430 Y5.474 E75.95810
G1 X-9.188 Y3.543 E76.11641
G1 X-9.588 Y3.774 E76.13816
G1 X-6.830 Y5.705 E76.29647
G1 X-7.231 Y5.936 E76.31822
G1 X-9.989 Y4.005 E76.47653
G1 X-10.389 Y4.236 E76.49828
G1 X-7.631 Y6.168 E76.65659
G1 X-8.032 Y6.399 E76.67834
G1 X-10.790 Y4.468 E76.83665
G1 X-11.190 Y4.699 E76.85840
G1 X-8.432 Y6.630 E77.01671
G1 X-8.832 Y6.861 E77.03846
G1 X-11.591 Y4.930 E77.19677
G1 X-11.991 Y5.161 E77.21852
G1 X-9.233 Y7.092 E77.37683
G1 X-9.633 Y7.324 E77.39858
G1 X-12.391 Y5.392 E77.55689
G1 X-12.792 Y5.624 E77.57864
G1 X-10.034 Y7.555 E77.73695
G1 X-10.434 Y7.786 E77.75870
G1 X-13.192 Y5.855 E77.91702
G1 X-13.593 Y6.086 E77.93876
G1 X-10.835 Y8.017 E78.09708
G1 X-11.235 Y8.248 E78.11882
G1 X-13.993 Y6.317 E78.27714
G1 X-14.394 Y6.548 E78.29888
G1 X-11.636 Y8.480 E78.45720
G1 X-12.036 Y8.711 E78.47894
G1 X-14.794 Y6.780 E78.63726
G1 X-15.195 Y7.011 E78.65900
G1 X-12.436 Y8.942 E78.81732
G1 X-12.837 Y9.173 E78.83906
G1 X-15.595 Y7.242 E78.99738
G1 X-15.995 Y7.473 E79.01912
G1 X-13.237 Y9.404 E79.17744
G1 X-13.638 Y9.636 E79.19918
G1 X-16.396 Y7.704 E79.35750
G1 X-16.796 Y7.936 E79.37924
G1 X-14.038 Y9.867 E79.53756
G1 X-14.439 Y10.098 E79.55930
G1 X-17.197 Y8.167 E79.71762
G1 X-17.597 Y8.398 E79.73936
G1 X-14.839 Y10.329 E79.89768
G1 X-15.240 Y10.560 E79.91942
G1 X-17.998 Y8.629 E80.07774
G1 X-18.398 Y8.860 E80.09948
G1 X-15.640 Y10.792 E80.25780
G1 X-16.041 Y11.023 E80.27954
G1 X-18.799 Y9.092 E80.43786
G1 X-19.199 Y9.323 E80.45960
G1 X-16.441 Y11.254 E80.61792
G1 X-16.841 Y11.485 E80.63966
G1 X-19.600 Y9.554 E80.79798
G1 X-20.000 Y9.785 E80.81972
G1 X-17.242 Y11.716 E80.97804
G1 X-17.642 Y11.948 E80.99978
G1 X-20.400 Y10.016 E81.15810
G1 X-20.801 Y10.248 E81.17984
G1 X-18.043 Y12.179 E81.33816
G1 X-18.443 Y12.410 E81.35990
G1 X-21.201 Y10.479 E81.51822
G1 X-21.602 Y10.710 E81.53996
G1 X-18.844 Y12.641 E81.69828
G1 X-19.244 Y12.872 E81.72002
G1 X-22.002 Y10.941 E81.87834
G1 X-22.403 Y11.172 E81.90008
G1 X-19.645 Y13.104 E82.05840
G1 X-20.045 Y13.335 E82.08014
G1 X-22.803 Y11.404 E82.23846
G1 X-23.204 Y11.635 E82.26020
G1 X-20.445 Y13.566 E82.41852
G1 X-20.846 Y13.797 E82.44026
G1 X-23.604 Y11.866 E82.59858
G1 X-24.004 Y12.097 E82.62032
G1 X-21.246 Y14.028 E82.77864
G1 X-21.647 Y14.260 E82.80038
G1 X-24.405 Y12.328 E82.95870
G1 X-24.805 Y12.560 E82.98044
G1 X-22.047 Y14.491 E83.13876
G1 X-22.448 Y14.722 E83.16050
G1 X-25.206 Y12.791 E83.31882
G1 X-25.606 Y13.022 E83.34056
G1 X-22.848 Y14.953 E83.49888
G1 X-23.249 Y15.184 E83.52062
G1 X-26.007 Y13.253 E83.67894
G1 X-26.407 Y13.484 E83.70068
G1 X-23.649 Y15.416 E83.85900
G1 X-24.050 Y15.647 E83.88075
G1 X-26.808 Y13.716 E84.03906
G1 X-27.208 Y13.947 E84.06081
G1 X-24.450 Y15.878 E84.21912
G1 X-24.850 Y16.109 E84.24087
G1 X-27.608 Y14.178 E84.39918
G1 X-28.009 Y14.409 E84.42093
G1 X-25.251 Y16.340 E84.57924
G1 X-25.651 Y16.572 E84.60099
G1 X-28.409 Y14.640 E84.75930
G1 X-28.810 Y14.872 E84.78105
G1 X-26.052 Y16.803 E84.93936
G1 X-26.452 Y17.034 E84.96111
G1 X-29.210 Y15.103 E85.11942
G1 X-29.611 Y15.334 E85.14117
G1 X-26.853 Y17.265 E85.29949
G1 X-27.253 Y17.496 E85.32123
G1 X-30.011 Y15.565 E85.47955
G1 X-30.412 Y15.796 E85.50129
G1 X-27.654 Y17.728 E85.65961
G1 X-28.054 Y17.959 E85.68135
G1 X-30.812 Y16.028 E85.83967
G1 X-31.213 Y16.259 E85.86141
G1 X-28.454 Y18.190 E86.01973
G1 X-28.855 Y18.421 E86.04147
G1 X-31.613 Y16.490 E86.19979
G1 X-32.013 Y16.721 E86.22153
G1 X-29.255 Y18.652 E86.37985
G1 X-29.656 Y18.884 E86.40159
G1 X-32.414 Y16.952 E86.55991
G1 X-32.814 Y17.184 E86.58165
G1 X-30.056 Y19.115 E86.73997
G1 X-30.457 Y19.346 E86.76171
G1 X-33.215 Y17.415 E86.92003
G1 X-33.615 Y17.646 E86.94177
G1 X-30.857 Y19.577 E87.10009
G1 X-31.258 Y19.808 E87.12183
G1 X-34.016 Y17.877 E87.28015
G1 X-34.416 Y18.108 E87.30189
G1 X-31.658 Y20.040 E87.46021
G1 X-32.058 Y20.271 E87.48195
G1 X-34.817 Y18.340 E87.64027
G1 X-35.217 Y18.571 E87.66201
G1 X-32.459 Y20.502 E87.82033
G1 X-32.859 Y20.733 E87.84207
G1 X-35.617 Y18.802 E88.00039
G1 X-36.018 Y19.033 E88.02213
G1 X-33.260 Y20.964 E88.18045
G1 X-33.660 Y21.196 E88.20219
G1 X-36.418 Y19.264 E88.36051
G1 X-36.819 Y19.496 E88.38225
G1 X-34.061 Y21.427 E88.54057
G1 X-34.461 Y21.658 E88.56231
G1 X-37.219 Y19.727 E88.72063
G1 X-37.620 Y19.958 E88.74237
G1 X-34.862 Y21.889 E88.90069
G1 X-35.262 Y22.120 E88.92243
G1 X-38.020 Y20.189 E89.08075
G1 X-38.421 Y20.420 E89.10249
G1 X-35.663 Y22.352 E89.26081
G1 X-36.063 Y22.583 E89.28255
G1 X-38.821 Y20.652 E89.44087
G1 X-39.222 Y20.883 E89.46261
G1 X-36.463 Y22.814 E89.62093
G1 X-36.864 Y23.045 E89.64268
G1 X-39.622 Y21.114 E89.80099
G1 X-40.022 Y21.345 E89.82274
G1 X-37.264 Y23.276 E89.98105
G1 X-37.665 Y23.508 E90.00280
G1 X-40.423 Y21.576 E90.16111
G1 X-40.823 Y21.808 E90.18286
G1 X-38.065 Y23.739 E90.34117
G1 X-38.466 Y23.970 E90.36292
G1 X-41.224 Y22.039 E90.52123
G1 X-41.624 Y22.270 E90.54298
G1 X-38.866 Y24.201 E90.70130
G1 X-39.267 Y24.432 E90.72304
G1 X-42.025 Y22.501 E90.88136
G1 X-42.425 Y22.732 E90.90310
G1 X-39.667 Y24.664 E91.06142
G1 X-40.067 Y24.895 E91.08316
G1 X-42.826 Y22.964 E91.24148
G1 X-43.214 Y23.203 E91.26293
G1 X-40.468 Y25.126 E91.42053
G1 X-40.868 Y25.357 E91.44227
G1 X-42.718 Y24.062 E91.54843
G1 X-42.222 Y24.921 F10800.000
G1 X-41.269 Y25.588 E91.60313 F3780.000
G1 X-41.669 Y25.820 E91.62488
G1 X-41.726 Y25.780 E91.62814
G1 X-41.669 Y25.820 F8640.000 E91.61670
G1 X-41.269 Y25.588 F8640.000 E91.54043
G1 X-42.222 Y24.921 F8640.000 E91.34853
G1 F1500.000 E89.62814
G1 Z100.800 F10800.000
G92 E0
G1 X-1.526 Y25.791 F10800.000
G1 Z100.300 F10800.000
G1 E2.00000 F1500.000
G1 X1.526 Y27.927 E2.17516 F3780.000
G1 X1.526 Y28.439 E2.19922
G1 X-1.526 Y26.302 E2.37438
G1 X-1.526 Y26.814 E2.39844
G1 X1.526 Y28.950 E2.57360
G1 X1.526 Y29.462 E2.59765
G1 X-1.526 Y27.325 E2.77282
G1 X-1.526 Y27.837 E2.79687
G1 X1.526 Y29.974 E2.97204
G1 X1.526 Y30.485 E2.99609
G1 X-1.526 Y28.348 E3.17125
G1 X-1.526 Y28.860 E3.19531
G1 X1.526 Y30.997 E3.37047
G1 X1.526 Y31.508 E3.39453
G1 X-1.526 Y29.372 E3.56969
G1 X-1.526 Y29.883 E3.59375
G1 X1.526 Y32.020 E3.76891
G1 X1.526 Y32.532 E3.79296
G1 X-1.526 Y30.395 E3.96813
G1 X-1.526 Y30.906 E3.99218
G1 X1.526 Y33.043 E4.16735
G1 X1.526 Y33.555 E4.19140
G1 X-1.526 Y31.418 E4.36656
G1 X-1.526 Y31.930 E4.39062
G1 X1.526 Y34.066 E4.56578
G1 X1.526 Y34.578 E4.58984
G1 X-1.526 Y32.441 E4.76500
G1 X-1.526 Y32.953 E4.78906
G1 X1.526 Y35.090 E4.96422
G1 X1.526 Y35.601 E4.98827
G1 X-1.526 Y33.464 E5.16344
G1 X-1.526 Y33.976 E5.18749
G1 X1.526 Y36.113 E5.36265
G1 X1.526 Y36.624 E5.38671
G1 X-1.526 Y34.488 E5.56187
G1 X-1.526 Y34.999 E5.58593
G1 X1.526 Y37.136 E5.76109
G1 X1.526 Y37.648 E5.78515
G1 X-1.526 Y35.511 E5.96031
G1 X-1.526 Y36.022 E5.98436
G1 X1.526 Y38.159 E6.15953
G1 X1.526 Y38.671 E6.18358
G1 X-1.526 Y36.534 E6.35875
G1 X-1.526 Y37.046 E6.38280
G1 X1.526 Y39.182 E6.55796
G1 X1.526 Y39.694 E6.58202
G1 X-1.526 Y37.557 E6.75718
G1 X-1.526 Y38.069 E6.78124
G1 X1.526 Y40.206 E6.95640
G1 X1.526 Y40.717 E6.98046
G1 X-1.526 Y38.580 E7.15562
G1 X-1.526 Y39.092 E7.17967
G1 X1.526 Y41.229 E7.35484
G1 X1.526 Y41.740 E7.37889
G1 X-1.526 Y39.604 E7.55406
G1 X-1.526 Y40.115 E7.57811
G1 X1.526 Y42.252 E7.75327
G1 X1.526 Y42.764 E7.77733
G1 X-1.526 Y40.627 E7.95249
G1 X-1.526 Y41.138 E7.97655
G1 X1.526 Y43.275 E8.15171
G1 X1.526 Y43.787 E8.17577
G1 X-1.526 Y41.650 E8.35093
G1 X-1.526 Y42.162 E8.37498
G1 X1.526 Y44.298 E8.55015
G1 X1.526 Y44.810 E8.57420
G1 X-1.526 Y42.673 E8.74936
G1 X-1.526 Y43.185 E8.77342
G1 X1.526 Y45.322 E8.94858
G1 X1.526 Y45.833 E8.97264
G1 X-1.526 Y43.696 E9.14780
G1 X-1.526 Y44.208 E9.17186
G1 X1.526 Y46.345 E9.34702
G1 X1.526 Y46.856 E9.37107
G1 X-1.526 Y44.720 E9.54624
G1 X-1.526 Y45.231 E9.57029
G1 X1.526 Y47.368 E9.74546
G1 X1.526 Y47.880 E9.76951
G1 X-1.526 Y45.743 E9.94467
G1 X-1.526 Y46.254 E9.96873
G1 X1.526 Y48.391 E10.14389
G1 X1.526 Y48.903 E10.16795
G1 X-1.526 Y46.766 E10.34311
G1 X-1.526 Y47.278 E10.36717
G1 X0.971 Y49.026 E10.51048
G1 X0.240 Y49.026 E10.54483
G1 X-1.526 Y47.789 E10.64620
G1 X-1.526 Y48.301 E10.67026
G1 X-0.490 Y49.026 E10.72969
G1 X-1.221 Y49.026 E10.76405
G1 X-1.526 Y48.812 E10.78154
G1 X1.526 Y27.416 F10800.000
G1 X-1.526 Y25.279 E10.95670 F3780.000
G1 X-1.526 Y24.767 E10.98076
G1 X1.526 Y26.904 E11.15592
G1 X1.526 Y26.392 E11.17997
G1 X-1.526 Y24.256 E11.35514
G1 X-1.526 Y23.744 E11.37919
G1 X1.526 Y25.881 E11.55436
G1 X1.526 Y25.369 E11.57841
G1 X-1.526 Y23.233 E11.75357
G1 X-1.526 Y22.721 E11.77763
G1 X1.526 Y24.858 E11.95279
G1 X1.526 Y24.346 E11.97685
G1 X-1.526 Y22.209 E12.15201
G1 X-1.526 Y21.698 E12.17607
G1 X1.526 Y23.834 E12.35123
G1 X1.526 Y23.323 E12.37528
G1 X-1.526 Y21.186 E12.55045
G1 X-1.526 Y20.675 E12.57450
G1 X1.526 Y22.811 E12.74966
G1 X1.526 Y22.300 E12.77372
G1 X-1.526 Y20.163 E12.94888
G1 X-1.526 Y19.651 E12.97294
G1 X1.526 Y21.788 E13.14810
G1 X1.526 Y21.276 E13.17216
G1 X-1.526 Y19.140 E13.34732
G1 X-1.526 Y18.628 E13.37138
G1 X1.526 Y20.765 E13.54654
G1 X1.526 Y20.253 E13.57059
G1 X-1.526 Y18.117 E13.74576
G1 X-1.526 Y17.605 E13.76981
G1 X1.526 Y19.742 E13.94497
G1 X1.526 Y19.230 E13.96903
G1 X-1.526 Y17.093 E14.14419
G1 X-1.526 Y16.582 E14.16825
G1 X1.526 Y18.718 E14.34341
G1 X1.526 Y18.207 E14.36747
G1 X-1.526 Y16.070 E14.54263
G1 X-1.526 Y15.559 E14.56668
G1 X1.526 Y17.695 E14.74185
G1 X1.526 Y17.184 E14.76590
G1 X-1.526 Y15.047 E14.94107
G1 X-1.526 Y14.535 E14.96512
G1 X1.526 Y16.672 E15.14028
G1 X1.526 Y16.160 E15.16434
G1 X-1.526 Y14.024 E15.33950
G1 X-1.526 Y13.512 E15.36356
G1 X1.526 Y15.649 E15.53872
G1 X1.526 Y15.137 E15.56278
G1 X-1.526 Y13.001 E15.73794
G1 X-1.526 Y12.489 E15.76199
G1 X1.526 Y14.626 E15.93716
G1 X1.526 Y14.114 E15.96121
G1 X-1.526 Y11.977 E16.13638
G1 X-1.526 Y11.466 E16.16043
G1 X1.526 Y13.602 E16.33559
G1 X1.526 Y13.091 E16.35965
G1 X-1.526 Y10.954 E16.53481
G1 X-1.526 Y10.443 E16.55887
G1 X1.526 Y12.579 E16.73403
G1 X1.526 Y12.068 E16.75809
G1 X-1.526 Y9.931 E16.93325
G1 X-1.526 Y9.419 E16.95730
G1 X1.526 Y11.556 E17.13247
G1 X1.526 Y11.045 E17.15652
G1 X-1.526 Y8.908 E17.33168
G1 X-1.526 Y8.396 E17.35574
G1 X1.526 Y10.533 E17.53090
G1 X1.526 Y10.021 E17.55496
G1 X-1.526 Y7.885 E17.73012
G1 X-1.526 Y7.373 E17.75418
G1 X1.526 Y9.510 E17.92934
G1 X1.526 Y8.998 E17.95339
G1 X-1.526 Y6.861 E18.12856
G1 X-1.526 Y6.350 E18.15261
G1 X1.526 Y8.487 E18.32778
G1 X1.526 Y7.975 E18.35183
G1 X-1.526 Y5.838 E18.52699
G1 X-1.526 Y5.327 E18.55105
G1 X1.526 Y7.463 E18.72621
G1 X1.526 Y6.952 E18.75027
G1 X-1.526 Y4.815 E18.92543
G1 X-1.526 Y4.303 E18.94949
G1 X1.526 Y6.440 E19.12465
G1 X1.526 Y5.929 E19.14870
G1 X-1.526 Y3.792 E19.32387
G1 X-1.526 Y3.280 E19.34792
G1 X1.526 Y5.417 E19.52309
G1 X1.526 Y3.371 F10800.000
G1 X-3.181 Y0.075 E19.79326 F3780.000
G1 X-4.398 Y-0.778 F10800.000
G1 X-33.079 Y-20.860 E21.43957 F3780.000
G1 X-33.548 Y-17.607 F10800.000
G1 X-42.732 Y-24.038 E21.96676 F3780.000
G1 X-42.942 Y-23.673 E21.98654
G1 X-37.712 Y-20.011 E22.28678
G1 X-37.243 Y-23.264 F10800.000
G1 X-8.563 Y-3.182 E23.93308 F3780.000
G1 X-8.094 Y-6.435 F10800.000
