; G-Code generated by Simplify3D(R) Version 3.0.1
; Feb 3, 2016 at 8:19:39 AM
; Settings Summary
;   processName,KABS-40-25-70
;   applyToModels,delta_calibration_star
;   profileName,KABS-40-25-70
;   profileVersion,2015-12-28 13:31:31
;   baseProfile,Rostock MAX v2 (modified)
;   printMaterial,ABS
;   printQuality,High
;   printExtruders,
;   extruderName,Primary Extruder
;   extruderToolheadNumber,0
;   extruderDiameter,0.4
;   extruderAutoWidth,1
;   extruderWidth,0.48
;   extrusionMultiplier,1
;   extruderUseRetract,1
;   extruderRetractionDistance,1
;   extruderExtraRestartDistance,0
;   extruderRetractionZLift,0
;   extruderRetractionSpeed,1500
;   extruderUseCoasting,0
;   extruderCoastingDistance,1
;   extruderUseWipe,0
;   extruderWipeDistance,5
;   primaryExtruder,0
;   layerHeight,0.25
;   topSolidLayers,3
;   bottomSolidLayers,3
;   perimeterOutlines,3
;   printPerimetersInsideOut,1
;   startPointOption,3
;   startPointOriginX,0
;   startPointOriginY,0
;   startPointOriginZ,300
;   sequentialIslands,0
;   spiralVaseMode,0
;   firstLayerHeightPercentage,100
;   firstLayerWidthPercentage,150
;   firstLayerUnderspeed,0.4
;   useRaft,0
;   raftExtruder,0
;   raftLayers,3
;   raftOffset,3
;   raftSeparationDistance,0.14
;   raftInfill,85
;   disableRaftBaseLayers,0
;   useSkirt,1
;   skirtExtruder,0
;   skirtLayers,1
;   skirtOutlines,2
;   skirtOffset,3
;   usePrimePillar,0
;   primePillarExtruder,999
;   primePillarWidth,12
;   primePillarLocation,7
;   primePillarSpeedMultiplier,1
;   useOozeShield,0
;   oozeShieldExtruder,999
;   oozeShieldOffset,10
;   oozeShieldOutlines,1
;   oozeShieldSidewallShape,1
;   oozeShieldSidewallAngle,30
;   oozeShieldSpeedMultiplier,1
;   infillExtruder,0
;   internalInfillPattern,Rectilinear
;   externalInfillPattern,Rectilinear
;   infillPercentage,50
;   outlineOverlapPercentage,5
;   infillExtrusionWidthPercentage,100
;   minInfillLength,5
;   infillLayerInterval,1
;   infillAngles,45,-45
;   overlapInfillAngles,0
;   generateSupport,0
;   supportExtruder,0
;   supportInfillPercentage,40
;   supportExtraInflation,0
;   denseSupportLayers,0
;   denseSupportInfillPercentage,70
;   supportLayerInterval,1
;   supportHorizontalPartOffset,0.3
;   supportUpperSeparationLayers,1
;   supportLowerSeparationLayers,1
;   supportType,0
;   supportGridSpacing,2
;   maxOverhangAngle,45
;   supportAngles,0
;   temperatureName,Primary Extruder,Heated Bed
;   temperatureNumber,0,1
;   temperatureSetpointCount,1,1
;   temperatureSetpointLayers,1,1
;   temperatureSetpointTemperatures,230,100
;   temperatureStabilizeAtStartup,0,0
;   temperatureHeatedBed,0,1
;   temperatureRelayBetweenLayers,0,0
;   temperatureRelayBetweenLoops,0,0
;   fanLayers,1
;   fanSpeeds,0
;   blipFanToFullPower,1
;   adjustSpeedForCooling,0
;   minSpeedLayerTime,15
;   minCoolingSpeedSlowdown,20
;   increaseFanForCooling,0
;   minFanLayerTime,60
;   maxCoolingFanSpeed,100
;   increaseFanForBridging,0
;   bridgingFanSpeed,100
;   use5D,1
;   relativeEdistances,0
;   allowEaxisZeroing,1
;   independentExtruderAxes,0
;   includeM10123,0
;   stickySupport,1
;   applyToolheadOffsets,0
;   gcodeXoffset,0
;   gcodeYoffset,0
;   gcodeZoffset,0
;   overrideMachineDefinition,1
;   machineTypeOverride,1
;   strokeXoverride,240
;   strokeYoverride,240
;   strokeZoverride,230
;   originOffsetXoverride,120
;   originOffsetYoverride,120
;   originOffsetZoverride,0
;   homeXdirOverride,0
;   homeYdirOverride,0
;   homeZdirOverride,1
;   flipXoverride,1
;   flipYoverride,-1
;   flipZoverride,1
;   toolheadOffsets,0,0|0,0|0,0|0,0|0,0|0,0
;   overrideFirmwareConfiguration,1
;   firmwareTypeOverride,RepRap (Marlin/Repetier/Sprinter)
;   GPXconfigOverride,r2
;   baudRateOverride,250000
;   overridePrinterModels,1
;   printerModelsOverride
;   startingGcode,G28 ; home all axes
;   layerChangeGcode,
;   retractionGcode,
;   toolChangeGcode,
;   endingGcode,G91 ; relative positioning,G1 E-1 F300 ; retract the filament a bit before lifting the nozzle to release some of the pressure,G1 Z+1 E-10 F1500 ; move Z up a bit retract filament even more,G28 ; move X to min endstop so the head is out of the way,M107 ; fan off,M104 S0 ; extruder off,M140 S0 ; bed off,G4 S300,M84 ; disable motors
;   createX3G,0
;   celebration,0
;   celebrationSong,Random Song
;   createMB5G,0
;   postProcessing,
;   defaultSpeed,4200
;   outlineUnderspeed,0.7
;   solidInfillUnderspeed,0.8
;   supportUnderspeed,0.8
;   rapidXYspeed,9000
;   rapidZspeed,9000
;   minBridgingArea,50
;   bridgingExtraInflation,0.2
;   bridgingExtrusionMultiplier,0.9
;   bridgingSpeedMultiplier,0.3
;   filamentDiameter,1.75
;   filamentPricePerKg,46
;   filamentDensity,1.25
;   useMinPrintHeight,0
;   minPrintHeight,0
;   useMaxPrintHeight,0
;   maxPrintHeight,0
;   useDiaphragm,0
;   diaphragmLayerInterval,1
;   robustSlicing,0
;   mergeAllIntoSolid,0
;   onlyRetractWhenCrossingOutline,1
;   retractBetweenLayers,1
;   useRetractionMinTravel,1
;   retractionMinTravel,3
;   retractWhileWiping,1
;   onlyWipeOutlines,1
;   avoidCrossingOutline,0
;   maxMovementDetourFactor,3
;   toolChangeRetractionDistance,12
;   toolChangeExtraRestartDistance,-0.5
;   toolChangeRetractionSpeed,600
;   allowThinWallGapFill,1
;   thinWallAllowedOverlapPercentage,10
;   horizontalSizeCompensation,0
G90
M82
M106 S0
M140 S100
M104 S230 T0
G28 ; home all axes
G92 E0
G1 E-1.0000 F1500
G1 Z0.250 F9000
; layer 1, Z = 0.25
T0
; tool H0.250 W0.720
; skirt
G1 X6.095 Y-10.557 F9000
G1 E0.0000 F450
G92 E0
G1 X41.346 Y-30.909 E3.0461 F1680
G1 X41.630 Y-30.946 E3.0675
G1 X44.307 Y-30.229 E3.2750
G1 X44.534 Y-30.055 E3.2964
G1 X48.295 Y-23.540 E3.8593
G1 X48.332 Y-23.257 E3.8807
G1 X47.615 Y-20.579 E4.0881
G1 X47.441 Y-20.352 E4.1096
G1 X12.190 Y0.000 E7.1557
G1 X47.441 Y20.352 E10.2018
G1 X47.615 Y20.579 E10.2232
G1 X48.332 Y23.257 E10.4306
G1 X48.295 Y23.540 E10.4521
G1 X44.534 Y30.055 E11.0149
G1 X44.307 Y30.229 E11.0364
G1 X41.630 Y30.946 E11.2438
G1 X41.346 Y30.909 E11.2652
G1 X6.095 Y10.557 E14.3113
G1 X6.095 Y51.261 E17.3574
G1 X5.985 Y51.525 E17.3789
G1 X4.025 Y53.485 E17.5863
G1 X3.761 Y53.595 E17.6077
G1 X-3.761 Y53.595 E18.1706
G1 X-4.025 Y53.485 E18.1921
G1 X-5.985 Y51.525 E18.3995
G1 X-6.095 Y51.261 E18.4209
G1 X-6.095 Y10.557 E21.4670
G1 X-41.346 Y30.909 E24.5131
G1 X-41.630 Y30.946 E24.5345
G1 X-44.307 Y30.229 E24.7420
G1 X-44.534 Y30.055 E24.7634
G1 X-48.295 Y23.540 E25.3263
G1 X-48.332 Y23.257 E25.3477
G1 X-47.615 Y20.579 E25.5551
G1 X-47.441 Y20.352 E25.5766
G1 X-12.190 Y0.000 E28.6227
G1 X-47.441 Y-20.352 E31.6688
G1 X-47.615 Y-20.579 E31.6902
G1 X-48.332 Y-23.257 E31.8976
G1 X-48.295 Y-23.540 E31.9191
G1 X-44.534 Y-30.055 E32.4820
G1 X-44.307 Y-30.229 E32.5034
G1 X-41.630 Y-30.946 E32.7108
G1 X-41.346 Y-30.909 E32.7322
G1 X-6.095 Y-10.557 E35.7783
G1 X-6.095 Y-51.261 E38.8244
G1 X-5.985 Y-51.525 E38.8459
G1 X-4.025 Y-53.485 E39.0533
G1 X-3.761 Y-53.595 E39.0747
G1 X3.761 Y-53.595 E39.6376
G1 X4.025 Y-53.485 E39.6591
G1 X5.985 Y-51.525 E39.8665
G1 X6.095 Y-51.261 E39.8879
G1 X6.095 Y-10.557 E42.9340
G1 X5.615 Y-9.725 F9000
G92 E0
G1 X41.503 Y-30.445 E3.1012 F1680
G1 X41.598 Y-30.458 E3.1083
G1 X44.090 Y-29.790 E3.3014
G1 X44.166 Y-29.732 E3.3086
G1 X47.832 Y-23.383 E3.8572
G1 X47.844 Y-23.289 E3.8643
G1 X47.176 Y-20.796 E4.0575
G1 X47.118 Y-20.720 E4.0646
G1 X11.230 Y0.000 E7.1658
G1 X47.118 Y20.720 E10.2669
G1 X47.176 Y20.796 E10.2741
G1 X47.844 Y23.289 E10.4672
G1 X47.832 Y23.383 E10.4744
G1 X44.166 Y29.732 E11.0230
G1 X44.090 Y29.790 E11.0301
G1 X41.598 Y30.458 E11.2232
G1 X41.503 Y30.445 E11.2304
G1 X5.615 Y9.725 E14.3316
G1 X5.615 Y51.165 E17.4327
G1 X5.578 Y51.254 E17.4399
G1 X3.754 Y53.078 E17.6330
G1 X3.665 Y53.115 E17.6401
G1 X-3.665 Y53.115 E18.1887
G1 X-3.754 Y53.078 E18.1959
G1 X-5.578 Y51.254 E18.3890
G1 X-5.615 Y51.165 E18.3962
G1 X-5.615 Y9.725 E21.4973
G1 X-41.503 Y30.445 E24.5985
G1 X-41.598 Y30.458 E24.6057
G1 X-44.090 Y29.790 E24.7988
G1 X-44.166 Y29.732 E24.8059
G1 X-47.832 Y23.383 E25.3545
G1 X-47.844 Y23.289 E25.3617
G1 X-47.176 Y20.796 E25.5548
G1 X-47.118 Y20.720 E25.5620
G1 X-11.230 Y0.000 E28.6631
G1 X-47.118 Y-20.720 E31.7643
G1 X-47.176 Y-20.796 E31.7714
G1 X-47.844 Y-23.289 E31.9646
G1 X-47.832 Y-23.383 E31.9717
G1 X-44.166 Y-29.732 E32.5203
G1 X-44.090 Y-29.790 E32.5275
G1 X-41.598 Y-30.458 E32.7206
G1 X-41.503 Y-30.445 E32.7277
G1 X-5.615 Y-9.725 E35.8289
G1 X-5.615 Y-51.165 E38.9301
G1 X-5.578 Y-51.254 E38.9372
G1 X-3.754 Y-53.078 E39.1303
G1 X-3.665 Y-53.115 E39.1375
G1 X3.665 Y-53.115 E39.6861
G1 X3.754 Y-53.078 E39.6932
G1 X5.578 Y-51.254 E39.8864
G1 X5.615 Y-51.165 E39.8935
G1 X5.615 Y-9.725 E42.9947
G92 E0
G1 E-1.0000 F1500
; inner perimeter
G1 X0.575 Y48.075 F9000
G1 E0.0000 F1500
G92 E0
G1 X-0.575 Y48.075 E0.0861 F1512
G1 X-0.575 Y0.996 E3.6092
G1 X-41.347 Y24.535 E7.1324
G1 X-41.922 Y23.540 E7.2185
G1 X-1.150 Y0.000 E10.7416
G1 X-41.922 Y-23.540 E14.2648
G1 X-41.347 Y-24.535 E14.3509
G1 X-0.575 Y-0.996 E17.8741
G1 X-0.575 Y-48.075 E21.3972
G1 X0.575 Y-48.075 E21.4833
G1 X0.575 Y-0.996 E25.0065
G1 X41.347 Y-24.535 E28.5296
G1 X41.922 Y-23.540 E28.6157
G1 X1.150 Y0.000 E32.1389
G1 X41.922 Y23.540 E35.6621
G1 X41.347 Y24.535 E35.7481
G1 X0.575 Y0.996 E39.2713
G1 X0.575 Y48.075 E42.7945
; inner perimeter
G1 X1.295 Y48.795 F9000
G92 E0
G1 X-1.295 Y48.795 E0.1938 F1344
G1 X-1.295 Y2.243 E3.6776
G1 X-41.610 Y25.519 E7.1613
G1 X-42.905 Y23.276 E7.3551
G1 X-2.590 Y0.000 E10.8388
G1 X-42.905 Y-23.276 E14.3226
G1 X-41.610 Y-25.519 E14.5164
G1 X-1.295 Y-2.243 E18.0001
G1 X-1.295 Y-48.795 E21.4839
G1 X1.295 Y-48.795 E21.6777
G1 X1.295 Y-2.243 E25.1614
G1 X41.610 Y-25.519 E28.6452
G1 X42.905 Y-23.276 E28.8390
G1 X2.590 Y0.000 E32.3227
G1 X42.905 Y23.276 E35.8064
G1 X41.610 Y25.519 E36.0003
G1 X1.295 Y2.243 E39.4840
G1 X1.295 Y48.795 E42.9677
; outer perimeter
G1 X2.015 Y49.515 F9000
G92 E0
G1 X-2.015 Y49.515 E0.3016 F1176
G1 X-2.015 Y3.490 E3.7459
G1 X-41.874 Y26.503 E7.1902
G1 X-43.889 Y23.012 E7.4918
G1 X-4.030 Y0.000 E10.9360
G1 X-43.889 Y-23.012 E14.3803
G1 X-41.874 Y-26.503 E14.6819
G1 X-2.015 Y-3.490 E18.1262
G1 X-2.015 Y-49.515 E21.5705
G1 X2.015 Y-49.515 E21.8721
G1 X2.015 Y-3.490 E25.3164
G1 X41.874 Y-26.503 E28.7607
G1 X43.889 Y-23.012 E29.0622
G1 X4.030 Y0.000 E32.5065
G1 X43.889 Y23.012 E35.9508
G1 X41.874 Y26.503 E36.2524
G1 X2.015 Y3.490 E39.6967
G1 X2.015 Y49.515 E43.1410
G92 E0
G1 E-1.0000 F1500
; layer 2, Z = 0.5
; tool H0.250 W0.480
; inner perimeter
G1 X1.300 Y48.800 F9000
G1 Z0.500 F9000
G1 E0.0000 F1500
G92 E0
G1 X-1.300 Y48.800 E0.1297 F3780
G1 X-1.300 Y2.252 E2.4520
G1 X-41.612 Y25.526 E4.7743
G1 X-42.912 Y23.274 E4.9040
G1 X-2.600 Y0.000 E7.2263
G1 X-42.912 Y-23.274 E9.5487
G1 X-41.612 Y-25.526 E9.6784
G1 X-1.300 Y-2.252 E12.0007
G1 X-1.300 Y-48.800 E14.3230
G1 X1.300 Y-48.800 E14.4527
G1 X1.300 Y-2.252 E16.7750
G1 X41.612 Y-25.526 E19.0973
G1 X42.912 Y-23.274 E19.2270
G1 X2.600 Y0.000 E21.5493
G1 X42.912 Y23.274 E23.8716
G1 X41.612 Y25.526 E24.0013
G1 X1.300 Y2.252 E26.3236
G1 X1.300 Y48.800 E28.6460
; inner perimeter
G1 X1.780 Y49.280 F9000
G92 E0
G1 X-1.780 Y49.280 E0.1776 F3360
G1 X-1.780 Y3.083 E2.4824
G1 X-41.788 Y26.182 E4.7872
G1 X-43.568 Y23.098 E4.9648
G1 X-3.560 Y0.000 E7.2695
G1 X-43.568 Y-23.098 E9.5743
G1 X-41.788 Y-26.182 E9.7519
G1 X-1.780 Y-3.083 E12.0567
G1 X-1.780 Y-49.280 E14.3615
G1 X1.780 Y-49.280 E14.5391
G1 X1.780 Y-3.083 E16.8439
G1 X41.788 Y-26.182 E19.1486
G1 X43.568 Y-23.098 E19.3262
G1 X3.560 Y0.000 E21.6310
G1 X43.568 Y23.098 E23.9358
G1 X41.788 Y26.182 E24.1134
G1 X1.780 Y3.083 E26.4182
G1 X1.780 Y49.280 E28.7230
; outer perimeter
G1 X2.260 Y49.760 F9000
G92 E0
G1 X-2.260 Y49.760 E0.2255 F2940
G1 X-2.260 Y3.914 E2.5127
G1 X-41.963 Y26.837 E4.8000
G1 X-44.223 Y22.923 E5.0255
G1 X-4.520 Y0.000 E7.3127
G1 X-44.223 Y-22.923 E9.6000
G1 X-41.963 Y-26.837 E9.8255
G1 X-2.260 Y-3.914 E12.1127
G1 X-2.260 Y-49.760 E14.4000
G1 X2.260 Y-49.760 E14.6255
G1 X2.260 Y-3.914 E16.9127
G1 X41.963 Y-26.837 E19.2000
G1 X44.223 Y-22.923 E19.4255
G1 X4.520 Y0.000 E21.7127
G1 X44.223 Y22.923 E24.0000
G1 X41.963 Y26.837 E24.2255
G1 X2.260 Y3.914 E26.5127
G1 X2.260 Y49.760 E28.8000
; solid layer
G1 X-0.844 Y48.031 F9000
G92 E0
G1 X-0.531 Y48.344 E0.0221 F3360
G1 X0.148 Y48.344 E0.0559
G1 X-0.844 Y47.352 E0.1259
G1 X-0.844 Y46.674 E0.1598
G1 X0.826 Y48.344 E0.2776
G1 X0.844 Y48.344 E0.2785
G1 X0.844 Y47.683 E0.3115
G1 X-0.844 Y45.995 E0.4306
G1 X-0.844 Y45.316 E0.4645
G1 X0.844 Y47.004 E0.5836
G1 X0.844 Y46.325 E0.6174
G1 X-0.844 Y44.637 E0.7365
G1 X-0.844 Y43.958 E0.7704
G1 X0.844 Y45.646 E0.8895
G1 X0.844 Y44.967 E0.9233
G1 X-0.844 Y43.279 E1.0424
G1 X-0.844 Y42.601 E1.0763
G1 X0.844 Y44.289 E1.1954
G1 X0.844 Y43.610 E1.2293
G1 X-0.844 Y41.922 E1.3484
G1 X-0.844 Y41.243 E1.3822
G1 X0.844 Y42.931 E1.5013
G1 X0.844 Y42.252 E1.5352
G1 X-0.844 Y40.564 E1.6543
G1 X-0.844 Y39.885 E1.6882
G1 X0.844 Y41.573 E1.8073
G1 X0.844 Y40.895 E1.8411
G1 X-0.844 Y39.207 E1.9602
G1 X-0.844 Y38.528 E1.9941
G1 X0.844 Y40.216 E2.1132
G1 X0.844 Y39.537 E2.1471
G1 X-0.844 Y37.849 E2.2662
G1 X-0.844 Y37.170 E2.3000
G1 X0.844 Y38.858 E2.4191
G1 X0.844 Y38.179 E2.4530
G1 X-0.844 Y36.491 E2.5721
G1 X-0.844 Y35.812 E2.6060
G1 X0.844 Y37.500 E2.7250
G1 X0.844 Y36.822 E2.7589
G1 X-0.844 Y35.134 E2.8780
G1 X-0.844 Y34.455 E2.9119
G1 X0.844 Y36.143 E3.0310
G1 X0.844 Y35.464 E3.0648
G1 X-0.844 Y33.776 E3.1839
G1 X-0.844 Y33.097 E3.2178
G1 X0.844 Y34.785 E3.3369
G1 X0.844 Y34.106 E3.3708
G1 X-0.844 Y32.418 E3.4899
G1 X-0.844 Y31.739 E3.5237
G1 X0.844 Y33.427 E3.6428
G1 X0.844 Y32.749 E3.6767
G1 X-0.844 Y31.061 E3.7958
G1 X-0.844 Y30.382 E3.8297
G1 X0.844 Y32.070 E3.9488
G1 X0.844 Y31.391 E3.9826
G1 X-0.844 Y29.703 E4.1017
G1 X-0.844 Y29.024 E4.1356
G1 X0.844 Y30.712 E4.2547
G1 X0.844 Y30.033 E4.2886
G1 X-0.844 Y28.345 E4.4077
G1 X-0.844 Y27.667 E4.4415
G1 X0.844 Y29.355 E4.5606
G1 X0.844 Y28.676 E4.5945
G1 X-0.844 Y26.988 E4.7136
G1 X-0.844 Y26.309 E4.7474
G1 X0.844 Y27.997 E4.8665
G1 X0.844 Y27.318 E4.9004
G1 X-0.844 Y25.630 E5.0195
G1 X-0.844 Y24.951 E5.0534
G1 X0.844 Y26.639 E5.1725
G1 X0.844 Y25.960 E5.2063
G1 X-0.844 Y24.272 E5.3254
G1 X-0.844 Y23.594 E5.3593
G1 X0.844 Y25.282 E5.4784
G1 X0.844 Y24.603 E5.5123
G1 X-0.844 Y22.915 E5.6314
G1 X-0.844 Y22.236 E5.6652
G1 X0.844 Y23.924 E5.7843
G1 X0.844 Y23.245 E5.8182
G1 X-0.844 Y21.557 E5.9373
G1 X-0.844 Y20.878 E5.9712
G1 X0.844 Y22.566 E6.0903
G1 X0.844 Y21.887 E6.1241
G1 X-0.844 Y20.199 E6.2432
G1 X-0.844 Y19.521 E6.2771
G1 X0.844 Y21.209 E6.3962
G1 X0.844 Y20.530 E6.4301
G1 X-0.844 Y18.842 E6.5492
G1 X-0.844 Y18.163 E6.5830
G1 X0.844 Y19.851 E6.7021
G1 X0.844 Y19.172 E6.7360
G1 X-0.844 Y17.484 E6.8551
G1 X-0.844 Y16.805 E6.8889
G1 X0.844 Y18.493 E7.0080
G1 X0.844 Y17.815 E7.0419
G1 X-0.844 Y16.127 E7.1610
G1 X-0.844 Y15.448 E7.1949
G1 X0.844 Y17.136 E7.3140
G1 X0.844 Y16.457 E7.3478
G1 X-0.844 Y14.769 E7.4669
G1 X-0.844 Y14.090 E7.5008
G1 X0.844 Y15.778 E7.6199
G1 X0.844 Y15.099 E7.6538
G1 X-0.844 Y13.411 E7.7729
G1 X-0.844 Y12.732 E7.8067
G1 X0.844 Y14.420 E7.9258
G1 X0.844 Y13.742 E7.9597
G1 X-0.844 Y12.054 E8.0788
G1 X-0.844 Y11.375 E8.1127
G1 X0.844 Y13.063 E8.2318
G1 X0.844 Y12.384 E8.2656
G1 X-0.844 Y10.696 E8.3847
G1 X-0.844 Y10.017 E8.4186
G1 X0.844 Y11.705 E8.5377
G1 X0.844 Y11.026 E8.5716
G1 X-0.844 Y9.338 E8.6906
G1 X-0.844 Y8.660 E8.7245
G1 X0.844 Y10.348 E8.8436
G1 X0.844 Y9.669 E8.8775
G1 X-0.844 Y7.981 E8.9966
G1 X-0.844 Y7.302 E9.0304
G1 X0.844 Y8.990 E9.1495
G1 X0.844 Y8.311 E9.1834
G1 X-0.844 Y6.623 E9.3025
G1 X-0.844 Y5.944 E9.3364
G1 X0.844 Y7.632 E9.4555
G1 X0.844 Y6.953 E9.4893
G1 X-0.844 Y5.265 E9.6084
G1 X-0.844 Y4.587 E9.6423
G1 X0.844 Y6.275 E9.7614
G1 X0.844 Y5.596 E9.7953
G1 X-0.844 Y3.908 E9.9144
G1 X-0.844 Y3.229 E9.9482
G1 X0.844 Y4.917 E10.0673
G1 X0.844 Y4.238 E10.1012
G1 X-0.844 Y2.550 E10.2203
G1 X-1.909 Y0.128 F9000
G92 E0
G1 X0.844 Y2.880 E0.1942 F3360
G1 X0.844 Y3.559 E0.2281
G1 X-0.844 Y1.871 E0.3472
G1 X-0.844 Y1.462 E0.3676
G1 X-1.104 Y1.612 E0.3826
G1 X-2.339 Y0.376 E0.4698
G1 X-2.770 Y0.624 E0.4946
G1 X-1.534 Y1.860 E0.5817
G1 X-1.964 Y2.109 E0.6065
